!!!!SEGMENT: pl-kj--bj-muz-4990-iii--002_zelenski-wladyslaw--trio-e-dur-op-22-mortuos-plango.krn
!!!cenid: 18xx:3697
!!!COM: Żeleński, Władysław
!!!COM-rismID: pe41024455
!!!CDT: 1837/07/06-1921/01/23
!!!CNT: Polish
!!!OPR: Trio E-dur op. 22
!!!OTL: Mortuos plango!
!!!OMV: 002
!!!PDT: 1875
!!!AGN:
!!!SMS-siglum: PL-Kj
!!!SMS-shelfmark: BJ Muz. 4990 III
!!!SMS-shelfwork: 001-002 M
!!!SMS-variant: Partytura PL-Kj BJ Muz. 4990 III:29-37
!!!SMS-altvar: VIOLINE. PL-Kj BJ Muz. 4990 III:67-68, VIOLONCELL. PL-Kj BJ Muz. 4990 III:80-81
!!!NIFC-rismSourceID:
!!!NIFC-rismChildID:
!!!NIFC-islandoraID: none
!!!URL-pdf-islandora:
!!!URL-scan: https://polona2.pl/item/trio-e-dur-fur-pianoforte-violone-und-violoncell-componirt-und-frau-auguste,NzQxNjc4OTA/6 @EN{Scan on Polona} @PL{Skany w portalu Polona}
!!!IIIF:
!!!ONB-nifc: UWAGA: części Tria: 1. Vivos voco!, 2. Mortuos plango!, 3. Fulgura frango! Uwaga: na podstawie partytury
!!!AIN: 1 cello 1 forte 1 violn
!!!key: C
**kern	**kern	**dynam	**kern	**dynam	**kern	**dynam
*part3	*part3	*part3	*part2	*part2	*part1	*part1
*staff4	*staff3	*	*staff2	*	*staff1	*
*I"[PIANOFORTE]	*I"[PIANOFORTE]	*	*I"VIOLONCELL.	*	*I"VIOLINE.	*
*Iforte	*Iforte	*	*Icello	*	*Ivioln	*
*ICklav	*ICklav	*	*ICstr	*	*ICstr	*
*clefF4	*clefG2	*	*clefF4	*	*clefG2	*
*k[]	*k[]	*	*k[]	*	*k[]	*
*C:	*C:	*	*C:	*	*C:	*
*M2/4	*M2/4	*	*M2/4	*	*M2/4	*
!	!LO:TX:a:B:t=Andante sostenuto.	!	!	!	!LO:TX:a:t=Andante sostenuto. [eighth] = 66.	!
8r	[8G^/	.	8r	.	8r	.
=1	=1	=1	=1	=1	=1	=1
!!LO:TX:t=P:problem:nazwy głosów przy pierwszej części cyklu, "Vivos voco!" (strona 3)
*^	*	*	*	*	*	*
!LO:N:vis=2	!	!	!	!	!	!	!
8CC/L	[2CC\	8G/]	p	2r	.	2r	.
8GG/	.	(>4e/	.	.	.	.	.
8GG#X/	.	.	.	.	.	.	.
8AA/J	.	8f/	.	.	.	.	.
=2	=2	=2	=2	=2	=2	=2	=2
*	*^	*	*	*	*	*	*
!LO:TX:t=P:problem=mixed beam	!	!	!	!	!	!	!	!
8AA#X/L	2CC\_	4ryy	8c#X/	.	2r	.	2r	.
8BB/	.	.	4d/	.	.	.	.	.
8GG/	.	[<4GG\	.	.	.	.	.	.
!LO:TX:t=P:problem=błędne wyświetlanie łuku	!	!	!	!	!	!	!	!
(8F\J	.	.	16BLL (16F</	.	.	.	.	.
.	.	.	16A/JJ	.	.	.	.	.
*	*v	*v	*	*	*	*	*	*
=3	=3	=3	=3	=3	=3	=3	=3
*	*	*^	*	*	*	*	*
!LO:TX:t=P:problem=mixed beam	!	!	!	!	!	!	!	!
8GG/L	4GG] 4CC\]	8G 8F<)/))	4ryy	.	2r	.	2r	.
8E\J	.	(>8g/L	.	.	.	.	.	.
(<8DL 8DD/	4ryy	8B/	8F\L	.	.	.	.	.
8CJ 8EE/	.	16.c/L	8G\J	<	.	.	.	.
.	.	32c/JJk	.	.	.	.	.	.
*	*	*v	*v	*	*	*	*	*
=4	=4	=4	=4	=4	=4	=4	=4
8C/L	4.FF\	4e [4A/	.	2r	.	2r	.
8C#X/	.	.	.	.	.	.	.
8D/J	.	8dL 8A/]	.	.	.	.	.
8EE\)	8ryy	8eJ 8c#X 8G/	[[	.	.	.	.
*v	*v	*	*	*	*	*	*
=5	=5	=5	=5	=5	=5	=5
*	*^	*	*	*	*	*
!	!LO:TX:i:b:t=con gran espress.	!	!	!	!	!	!
(8DD/L	4f [4d/ 4F/	4ryy	.	2r	.	2r	.
16D/L	.	.	.	.	.	.	.
16C/JJ	.	.	.	.	.	.	.
.	16qqg/LL	.	.	.	.	.	.
.	16qqf/	.	.	.	.	.	.
.	16qqe/	.	.	.	.	.	.
.	16qqf/JJ	.	.	.	.	.	.
8BB/L	8.a/L	8d\L]	.	.	.	.	.
[8BB-X/J	.	[8d-X\J	.	.	.	.	.
.	16g/Jk	.	.	.	.	.	.
!!LO:LB:g=original
=6	=6	=6	=6	=6	=6	=6	=6
8BB-X/L]	8e/)	8d-X\L]	.	2r	.	2r	.
8AA/	(4f/	8c\	p	.	.	.	.
8GG#X/	.	8B\	.	.	.	.	.
[8GGn/J	8e/	[8B-X\J	.	.	.	.	.
=7	=7	=7	=7	=7	=7	=7	=7
8GG/L]	8c#X/L	8B-\L]	.	2r	.	2r	.
16.FF/L	[8d/J	[8A\J	.	.	.	.	.
32EE/JJk	.	.	.	.	.	.	.
8FF/L	16d]LL 16A/]	4ryy	<	.	.	.	.
.	(16A'/	.	.	.	.	.	.
8FF#X/J)	16A'/	.	.	.	.	.	.
.	16A'/JJ)	.	.	.	.	.	.
*	*v	*v	*	*	*	*	*
=8	=8	=8	=8	=8	=8	=8
*^	*	*	*	*	*	*
8GL 8E/	[4GG\	4c/	.	4r	.	2r	.
8F#XJ 8E-X/	.	.	[ >	.	.	.	.
*	*	*	*	*clefC4	*	*	*
8ryy	8GG\]	8B 8G< 8D</)	.	8r	.	.	.
8r	8ryy	8r	]]	[8G^>/	.	.	.
*	*	*clefF4	*	*	*	*	*
=9	=9	=9	=9	=9	=9	=9	=9
8r	4CC\	8r	.	8G/]	p	2r	.
!LO:TUP:b	!	!LO:TUP:a	!	!LO:TX:i:b:t=cantabile	!	!	!
!	!	!LO:TX:t=P:problem=łuki nad triolami traktuję wyjątkowo jako łuki frazowe, a nie klamry łukowe, z uwagi na adnotację "sempre portando", co wskazuje na artykulacyjny charakter łuku i kropek	!	!	!	!	!
(24GG'/LL	.	(24G'\LL	p	(4e\	.	.	.
24GG'/	.	24G'\	.	.	.	.	.
!	!	!LO:TX:i:b:t=sempre portando	!	!	!	!	!
[24GG'/JJ)	.	[<24G'\JJ)	.	.	.	.	.
8GG/L]	8CC#X\L	8G\L]	.	.	.	.	.
!LO:TUP:a	!	!	!	!	!	!	!
!	!	!LO:TUP:a	!	!	!	!	!
(24GG'/L	8DD\J	(24G'\L	.	8f\)	.	.	.
24GG'/	.	24G'\	.	.	.	.	.
[24GG'/JJ)	.	[<24G'\JJ)	.	.	.	.	.
=10	=10	=10	=10	=10	=10	=10	=10
8GG/L]	8EE\L	8G\L]	.	8c#X\	.	[2gg\	p
!LO:TUP:a	!	!	!	!	!	!	!
!	!	!LO:TUP:a	!	!	!	!	!
(24GG'/L	8FF\J	(24G'\L	.	4d\	.	.	.
24GG'/	.	24G'\	.	.	.	.	.
[24GG'/JJ)	.	[<24G'\JJ)	.	.	.	.	.
8GG/L]	8GGG\L	8G\L]	.	.	.	.	<
!LO:TUP:a	!	!	!	!	!	!	!
!	!	!LO:TUP:a	!	!	!	!	!
(24GG'/L	8FF\J	(24G'\L	.	(16B\LL	.	.	.
24GG'/	.	24G'\	.	.	.	.	.
.	.	.	.	16A\JJ	.	.	.
[24GG'/JJ)	.	[<24G'\JJ)	.	.	.	.	.
=11	=11	=11	=11	=11	=11	=11	=11
*	*	*^	*	*	*	*	*
8GG/L]	8EE\L	8ryy	8G\L]	.	8G/)	.	2gg\_	.
24GG/L	8CC\	24G/LL	8C\	<	4e\	<	.	.
24GG/	.	24G/	.	.	.	.	.	.
[24GG/JJ	.	[24G/JJ	.	.	.	.	.	.
8GG/L]	8CC#X\	8G/L]	8C#X\	.	.	.	.	.
24GG/L	8DD\J	24G/L	8D\J	.	(8f\	.	.	.
24GG/	.	24G/	.	.	.	.	.	.
[24GG/JJ	.	[24G/JJ	.	.	.	.	.	.
!!LO:LB:g=original
=12	=12	=12	=12	=12	=12	=12	=12	=12
8GG/L]	8EE\L	8G/L]	8E\L	.	8c#X\L)	.	2gg\_	.
24GG/L	8FF\	24G/L	8F\	.	[8d\J	.	.	.
24GG/	.	24G/	.	.	.	.	.	[
[24GG/JJ	.	[24G/JJ	.	.	.	.	.	.
8GG/L]	8GGG\	8G/L]	8BB\	.	16d\LL]	.	.	>
.	.	.	.	.	16B\	.	.	.
.	.	.	.	.	(8qB/	.	.	.
24GG/L	8FF\J	24G/L	8D\J	.	(16A\)	.	.	.
24GG/	.	24G/	.	.	.	.	.	.
.	.	.	.	.	16G\JJ)	[[	.	.
[24GG/JJ	.	[24G/JJ	.	[	.	.	.	.
*	*	*v	*v	*	*	*	*	*
=13	=13	=13	=13	=13	=13	=13	=13
!	!	!LO:TX:i:b:t=espress.	!	!LO:TX:i:b:t=espressivo molto	!	!	!
8GG/]	4.EE\	8G]L 8C\	.	4g\	.	8gg\]	]
4ryy	.	(8C\	.	.	.	8r	.
.	.	8c\	.	(8c\L	.	4r	.
8D/	8ryy	8G#X\J	.	8f\J)	.	.	.
*v	*v	*	*	*	*	*	*
=14	=14	=14	=14	=14	=14	=14
8C/L	8A\L	.	(8.e\L	.	2r	.
8GG#X/	8B 8F\	.	.	.	.	.
.	.	.	16d\Jk)	.	.	.
8AA/	8c 8E\	.	(8c~\L	.	.	.
8BB/J	[8GJ [8E\	.	8B~\J)	.	.	.
.	.	<	.	.	.	.
=15	=15	=15	=15	=15	=15	=15
*	*^	*	*	*	*	*
8C/L	4G/]	8E\L]	.	(4A\	<	2r	.
8CC/J	.	8E-X\J	.	.	.	.	.
.	.	.	.	16qqB/LL	.	.	.
.	.	.	.	16qqA/	.	.	.
.	.	.	.	16qqG/	.	.	.
.	.	.	.	16qqA/JJ	.	.	.
4DD/	4F#X/)	8D\L	.	8.B\L)	.	.	.
.	.	8C\J	.	.	.	.	.
.	.	.	[	16A\Jk	[[	.	.
=16	=16	=16	=16	=16	=16	=16	=16
*^	*	*	*	*	*	*	*
*	*^	*	*	*	*	*	*	*
8GGG/L	4.GGG\	8ryy	[4G/	8C\L	>	4.G/	>	4r	.
!	!	!	!	!LO:TUP:a	!	!	!	!	!
[8GG/	.	24EE-X\LL	.	24CL 24AA\	.	.	]	.	.
.	.	24DD\	.	24D 24BB\	.	.	.	.	.
.	.	24CC\J	.	24E-XJ 24C\	.	.	.	.	.
8GG/J]	.	8DD\J	8G/]	8DJ 8BB\	]]	.	.	8r	.
!	!	!	!	!	!	!	!	!LO:TX:i:a:t=sonore	!
8r	8ryy	8ryy	8r	8ryy	.	8r	.	8G/	.
*v	*v	*v	*	*	*	*	*	*	*
*	*v	*v	*	*	*	*	*
=17	=17	=17	=17	=17	=17	=17
2r	8r	.	8r	.	8.d/L	.
*	*	*	*clefF4	*	*	*
.	[8B-XL [8G 8F\	p >	8FF/	p <	.	.
.	.	.	.	.	16d-X/Jk	.
.	8B-] 8G] 8E\	.	(4EEt/	.	(8c/L	.
.	(8B-J 8G 8D-X\	] sf	.	.	8go/J)	.
.	.	.	16qqDD/LL	[	.	.
.	.	.	16qqEE/JJ)	[[	.	.
!!LO:PB:g=original
=18	=18	=18	=18	=18	=18	=18
*	*	*^	*	*	*	*
!	!	!LO:HP:b	!	!	!	!	!
8r	[4A [4C\	>	.	[4FF/	>	[4g/	.
*ped	*	*	*	*	*	*	*
!	!	!	!LO:DY:b	!	!	!	!
24FFLL 24FFF/	.	.	pp	.	.	.	.
24FF 24FFF/	.	.	.	.	.	.	.
24FFJJ 24FFF/	.	.	.	.	.	.	.
*Xped	*	*	*	*	*	*	*
8FF 8FFF/	8A] 8C\])	]	.	8FF/]	]	16g/LL]	.
.	.	.	.	.	.	(16f'/	.
8r	8r	.	.	8r	.	16e'/	.
.	.	.	.	.	.	16d'/JJ)	.
*	*	*v	*v	*	*	*	*
=19	=19	=19	=19	=19	=19	=19
2r	8r	.	8r	.	(8.c/L	.
.	[8A-XL [8F 8E-X\	p >	8EE-X/	p	.	.
.	.	.	.	.	16c-X/Jk)	.
.	8A-] 8F] 8D\	.	(4DDt/	<	(8B-X/L	.
.	(8A-J 8F 8C-X\	] sf	.	.	8f/J)	.
.	.	.	16qqCC/LL	[	.	.
.	.	.	16qqDD/JJ)	[[	.	.
=20	=20	=20	=20	=20	=20	=20
*	*	*^	*	*	*	*
8r	[4G [4BB-X\	>	.	[4EE-X/	>	[4f/	.
*ped	*	*	*	*	*	*	*
!	!	!	!LO:DY:b	!	!	!	!
24EE-XLL 24EEE-X/	.	.	pp	.	.	.	.
24EE- 24EEE-/	.	.	.	.	.	.	.
24EE-J 24EEE-/	.	.	.	.	.	.	.
*Xped	*	*	*	*	*	*	*
8EE-J 8EEE-/	8G] 8BB-\])	]	.	8EE-/]	.	16f/LL]	.
.	.	.	.	.	.	(16e-X/	.
8r	8r	.	.	(16BB-X/LL	.	16B-X/	.
.	.	.	.	16C/JJ)	]	16c/JJ)	.
*	*	*v	*v	*	*	*	*
=21	=21	=21	=21	=21	=21	=21
*	*^	*	*	*	*	*
8r	8r	8ryy	.	(4.D\	.	(4.d/	.
(8CL 8CC/	[4.d [4.D/	8F#X\L	p	.	.	.	.
8BB-X 8BBB-X/	.	8G\	.	.	.	.	.
8FF#XJ 8FFF#X/	.	8A\J	.	8B-X\)	.	8b-X/)	.
!!LO:LB:g=original
=22	=22	=22	=22	=22	=22	=22	=22
8GGL 8GGG/)	8d] 8D/]	8B-X\L	.	(4.D\	.	(4.d/	.
(8AA 8AAA/	4d 4D^/	(8c\	<	.	.	.	.
8GG 8GGG/	.	8B-\	.	.	.	.	<
8FFnJ 8FFFn/	[8d [8D^/	8A\J	.	16.B-X\LL	.	16.b-X/LL	.
.	.	.	.	32B-'\JJk)	.	32b-'/JJk)	.
=23	=23	=23	=23	=23	=23	=23	=23
*	*	*	*	*	*	*	*^
8EEL 8EEE/)	8d]L 8D/])	8G#X\L	.	[4D\	.	[4d/	.	.
(8FF 8FFF/	24dL 24D/	8A^\	.	.	.	.	.	.
.	24d 24D/	.	.	.	.	.	.	.
.	[24dJJ [24D/	.	.	.	.	.	.	.
8EE 8EEE/)	8d]L 8D/]	8G#\	.	16D\LL]	.	16d/LL]	.	.
.	.	.	.	(16D'\	.	(16d'/	.	.
8FF#XJ 8FFF#X/	24dL 24D/	8c^\J	.	16D'\	.	16d'/	.	.
.	24d 24D/	.	.	.	.	.	.	.
.	.	.	.	16D'\JJ)	.	16d'/JJ)	.	.
.	24dJJ 24D/	.	.	.	.	.	.	.
=24	=24	=24	=24	=24	=24	=24	=24	=24
*	*	*	*^	*	*	*	*	*
!	!	!	!	!	!	!	!	!	!LO:DY:b
!	!	!	!	!LO:DY:b	!	!	!	!	!
[2GG 2GGG/	[4d [<4D/	16c\LL	.	sf	4F\	sf	4f/	.	sf
.	.	16B\	.	.	.	.	.	.	.
.	.	16A\	.	.	.	.	.	.	.
.	.	16G\JJ	.	.	.	.	.	.	.
.	8d] 8D/]	16F#X\LL	.	.	(8C\L	.	(8c/L	.	.
.	.	16A\	.	.	.	.	.	.	.
.	8ryy	16B\	.	.	8D\J)	.	8d/J)	[[	.
.	.	16Fn\JJ	[	.	.	.	.	.	.
*	*	*	*v	*v	*	*	*	*	*
*	*	*	*	*	*	*	*v	*v
=25	=25	=25	=25	=25	=25	=25	=25
*^	*	*	*	*	*	*	*
8GG]L 8CC/	8ryy	8E\	8ryy	[ f	8GG/	f	8G/	f
24GG/L	8CC\L	24G/LL	8C\L	mf	4E\	.	4e/	.
24GG/	.	24G/	.	.	.	.	.	.
[24GG/JJ	.	[24G/JJ	.	.	.	.	.	.
8GG/L]	8CC#X\	8G/L]	8C#X\	.	.	.	.	.
24GG/L	8DD\J	24G/L	8D\J	.	(8F\	.	(8f/	.
24GG/	.	24G/	.	.	.	.	.	.
[24GG/JJ	.	[24G/JJ	.	.	.	.	.	.
!!LO:LB:g=original
=26	=26	=26	=26	=26	=26	=26	=26	=26
8GG/L]	8EE\L	8G/L]	8E\L	.	8C#X/)	.	8c#X/)	.
24GG/L	8FF\	24G/L	8F\	.	4D\	.	4d/	.
24GG/	.	24G/	.	.	.	.	.	.
[24GG/JJ	.	[24G/JJ	.	.	.	.	.	.
8GG/L]	8GGG\	8G/L]	8BB\	.	.	.	.	.
24GG/L	8FF\J	24G/L	8D\J	.	(16BB/LL	.	(16B/LL	.
24GG/	.	24G/	.	.	.	.	.	.
.	.	.	.	.	16AA/JJ	.	16A/JJ	.
[24GG/JJ	.	[24G/JJ	.	.	.	.	.	.
*	*	*v	*v	*	*	*	*	*
=27	=27	=27	=27	=27	=27	=27	=27
8GG/]	8EE\	8G]L 8C/	.	8GG/L)	.	8G/L)	.
*	*	*clefG2	*	*	*	*	*
8CL 8CC/	24GG\LL	24gL 24G/	<	[>8E/J	.	[8e/J	<
.	24GG\	24g 24G/	.	.	.	.	.
.	[24GG\JJ	[24gJJ [24G/	.	.	.	.	.
8C#X 8CC#X/	8GG\L]	8g]L 8G/]	.	16E\LL]	.	16e/LL]	.
.	.	.	.	(16E\	.	(16e/	.
8DJ 8DD/	24GG\L	24gL 24G/	.	16G\)	.	16g/)	.
.	24GG\	24g 24G/	.	.	.	.	.
.	.	.	.	[16F\JJ	.	[16f/JJ	.
.	[>24GG\JJ	[24gJJ [24G/	.	.	.	.	.
=28	=28	=28	=28	=28	=28	=28	=28
8EL 8EE/	8GG\L]	8g]L 8G/]	.	16F\LL]	.	16f/LL]	.
.	.	.	.	(16C#X\	.	(16c#X/	.
*	*	*Xtuplet	*	*	*	*	*
8F 8FF/	24GG\L	24gL 24G/	.	16E\	.	16e/	.
.	24GG\	24g 24G/	.	.	.	.	.
.	.	.	.	16D\JJ)	.	16d/JJ)	.
.	24GG\JJ	[24gJJ [24G/	.	.	.	.	.
8GG/	8GGG\L	8g]L 8G/]	.	16Cn/LL	.	16cn/LL	.
.	.	.	.	16BB/	.	16B/	.
.	.	.	.	8qBB/	.	8qB/	.
8FJ 8FF/	24GG\L	24gL 24G/	.	(16AA/	.	(16A/	.
.	24GG\	24g 24G/	.	.	.	.	.
.	.	.	.	16GG/JJ)	.	16G/JJ)	[[
.	24GG\JJ	24gJJ 24G/	[[	.	.	.	.
*v	*v	*	*	*	*	*	*
=29	=29	=29	=29	=29	=29	=29
[4E [>4GG [4EE/	4g [4G/	.	(4G\	.	(4g/	.
8E] 8GG] 8EE/]	8cL 8G/]	.	8C/)	.	8c/)	.
8r	[8gJ [8e [8c#X [8B-X/	sf	8r	.	8r	.
!!LO:LB:g=original
=30	=30	=30	=30	=30	=30	=30
!	!	!LO:DY:b=2	!	!	!	!
8r	4g] 4e] 4c#X] 4B-X/]	p	2r	.	4r	.
4FF 4FFF/	.	.	.	.	.	.
.	(8fL 8d 8A/	>	.	.	8r	.
8GG 8GGG/	8eJ 8cn 8G/)	]]	.	.	[8c/	pp
=31	=31	=31	=31	=31	=31	=31
*	*^	*	*	*	*^	*
!	!LO:TX:i:a:t=espress.	!	!	!	!	!	!	!
8r	4d 4c/ (<4F/	4ryy	<	8r	.	2d/	4c\]	<
(4AA-X 4AAA-X/	.	.	.	(4AA-X/	pp <	.	.	.
.	16qqe/LL	.	.	.	.	.	.	.
.	16qqd/	.	.	.	.	.	.	.
.	16qqc#X/	.	.	.	.	.	.	.
.	16qqd/JJ	.	.	.	.	.	.	.
.	8.f/L	(4B 4F\)	.	.	.	.	4B\	.
[8GG 8GGG/)	.	.	.	8GG/)	[[	.	.	.
.	16e/Jk	.	.	.	.	.	.	[
*	*	*	*	*	*	*v	*v	*
=32	=32	=32	=32	=32	=32	=32	=32
*^	*	*	*	*	*	*	*
*	*^	*	*	*	*	*	*	*
*	*	*	*clefF4	*	*	*	*	*	*
8GG/L]	4.CC\	8ryy	[4c/	8F\L)	.	[4CC/	>	[4c/	>
*	*	*	*	*tuplet	*	*	*	*	*
!	!	!LO:TUP:a	!	!LO:TUP:a	!	!	!	!	!
8C/	.	((24AA-X\LL	.	(24FL 24D\	[ >	.	.	.	.
.	.	24GG\	.	24G 24E\	.	.	.	.	.
.	.	24FF\J	.	24A-XJ 24F\	.	.	.	.	.
8C/J	.	8GG\J))	8c/]	8GJ 8E\)	]	8CC/]	]	8c/]	]
*	*	*	*clefG2	*	*	*	*	*	*
8r	8ryy	8ryy	[8g^/	8ryy	.	8r	.	8r	.
*v	*v	*v	*	*	*	*	*	*	*
*	*v	*v	*	*	*	*	*
=33||	=33||	=33||	=33||	=33||	=33||	=33||
*k[b-e-a-]	*k[b-e-a-]	*	*k[b-e-a-]	*	*k[b-e-a-]	*
*tuplet	*	*	*	*	*	*
!LO:TX:t=P:problem=mixed beam	!	!	!	!	!	!
(24CC/LL	8g/L]	.	2r	.	2r	.
!LO:TX:i:b:t=sempre legato	!	!	!	!	!	!
24e-\	.	.	.	.	.	.
24G\JJ	.	.	.	.	.	.
!LO:TUP:a	!	!	!	!	!	!
24E-\LL	(8g/	p	.	.	.	.
24c\	.	.	.	.	.	.
24G\JJ	.	.	.	.	.	.
!LO:TUP:a	!	!	!	!	!	!
24E-\LL	8an/	.	.	.	.	.
24F\	.	.	.	.	.	.
24E-\JJ	.	.	.	.	.	.
!LO:TUP:a	!	!	!	!	!	!
24D\LL	8bn/J)	.	.	.	.	.
24f\	.	.	.	.	.	.
24G\JJ)	.	.	.	.	.	.
!!LO:PB:g=original
=34	=34	=34	=34	=34	=34	=34
*Xtuplet	*	*	*	*	*	*
24C\LL	(4cc\	.	2r	.	2r	.
24e-\	.	.	.	.	.	.
24c\JJ	.	.	.	.	.	.
24G\LL	.	.	.	.	.	.
24e-\	.	.	.	.	.	.
24c\JJ	.	.	.	.	.	.
.	16qqdd/LL	.	.	.	.	.
.	16qqcc/	.	.	.	.	.
.	16qqbn/	.	.	.	.	.
.	16qqcc/JJ	.	.	.	.	.
24E-\LL	8gg\L	.	.	.	.	.
24g\	.	<	.	.	.	.
24c\JJ	.	.	.	.	.	.
24G\LL	16.g\L)	.	.	.	.	.
24e-\	.	.	.	.	.	.
24c\JJ	.	.	.	.	.	.
.	(32g\JJk	.	.	.	.	.
=35	=35	=35	=35	=35	=35	=35
24D\LL	[8a-\L	.	2r	.	2r	.
24c\	.	.	.	.	.	.
24A-\JJ	.	.	.	.	.	.
!	!LO:TUP:a	!	!	!	!	!
24f\LL	24a-\L]	.	.	.	.	.
24c\	24cc\	.	.	.	.	.
24A-\JJ	24gg\JJ	.	.	.	.	.
!	!LO:TUP:a	!	!	!	!	!
24GG\LL	24ff\LL	.	.	.	.	.
24Bn\	24ee-\	.	.	.	.	.
24G\JJ	24dd\JJ	.	.	.	.	.
.	(<8qdd/	.	.	.	.	.
!	!LO:TUP:a	!	!	!	!	!
24f\LL	24cc\LL)	.	.	.	.	.
24B\	24bn\	.	.	.	.	.
24G\JJ	24dd\JJ	[[	.	.	.	.
=36	=36	=36	=36	=36	=36	=36
24E-\LL	8g/)	>	2r	.	8r	.
24c\	.	.	.	.	.	.
24G\JJ	.	.	.	.	.	.
!	!LO:TUP:a:problem=brak klamry	!	!	!	!	!
(8CC/L	24r	]	.	.	(4cc\	p <
.	(24e-/LL	p	.	.	.	.
.	24G/JJ)	.	.	.	.	.
!	!LO:TUP:a:problem=brak klamry	!	!	!	!	!
8DD/	24r	.	.	.	.	.
.	(24f/LL	.	.	.	.	.
.	24G/JJ)	.	.	.	.	.
!	!LO:TUP:a:problem=brak klamry	!	!	!	!	!
8EEn/J)	24r	.	.	.	([8bb-\)	[[
.	(24gLL 24c/	.	.	.	.	.
.	24G/JJ)	.	.	.	.	.
!!LO:LB:g=original
=37	=37	=37	=37	=37	=37	=37
*	*Xtuplet	*	*	*	*	*
!	!	!LO:HP:b:t=crescendo un poco:dur=2qe:ext=s	!	!	!	!LO:HP:b:t=crescendo un poco:dur=2qe:ext=s
(8FF/L	24r	<	2r	.	16bb-\LL]	<
.	(24a-/LL	.	.	.	.	.
.	.	.	.	.	16aa-\)	.
.	24c/JJ	.	.	.	.	.
8AA-/	24A-/LL	.	.	.	16gg\	.
.	24f/	.	.	.	.	.
.	.	.	.	.	16ff\JJ	.
.	24c/JJ)	.	.	.	.	.
8BB-/	24r	.	.	.	16ee-\LL	.
!	!LO:TUP:b:problem=klamra łukowa	!	!	!	!	!
.	(24d/LL	.	.	.	.	.
.	.	.	.	.	16dd\	.
.	24B-/	.	.	.	.	.
8AA-/J	24F/	.	.	.	16ee-\	.
.	24d/	.	.	.	.	.
.	.	.	.	.	16ff\JJ	.
.	24B-/JJ)	.	.	.	.	.
=38	=38	=38	=38	=38	=38	=38
8GG/L)	24r	.	2r	.	([8gg\L	.
!	!LO:TUP:b:problem=klamra łukowa	!	!	!	!	!
.	(24e-LL 24B-/	.	.	.	.	.
.	24G/JJ)	.	.	.	.	.
(8AAn 8AAAn/	24r	.	.	.	24gg\L]	.
!	!LO:TUP:b:problem=klamra łukowa	!	!	!	!	!
.	(24gLL 24e-/	.	.	.	24cc\	.
.	24G/JJ)	.	.	.	24gg\JJ)	.
8BB- 8BBB-/	24r	.	.	.	([8gg\L	.
!	!LO:TUP:b:problem=klamra łukowa	!	!	!	!	!
.	(24gLL 24e-/	.	.	.	.	.
.	24G/JJ)	.	.	.	.	.
8BBnJ 8BBBn/	24r	.	.	.	24gg\L]	.
!	!LO:TUP:b:problem=klamra łukowa	!	!	!	!	!
.	(24fLL 24d/	.	.	.	24cc\	.
.	24G/JJ)	.	.	.	24gg\JJ)	.
=39	=39	=39	=39	=39	=39	=39
*^	*	*	*	*	*	*
8C 8CC/)	4ryy	24r	.	2r	.	8ee-\L	.
!	!	!LO:TUP:b:problem=klamra łukowa	!	!	!	!	!
.	.	(24e-/LL	.	.	.	.	.
.	.	24c/	.	.	.	.	.
.	.	.	.	.	.	(8qff/	.
!	!	!	!	!	!	!LO:TUP:a	!
8r	.	24G/	.	.	.	24ee-w\L)	.
!	!	!	!	!	!	!	!LO:HP:b:t=dimin.
.	.	24e-/	.	.	.	24dd\	>
.	.	24c/JJ)	.	.	.	24ee-\JJ	.
!	!	!	!LO:HP:b:t=dim.	!	!	!	!
24rA	4FF\	24r	>	.	.	(4a-/	.
!LO:TUP:b:problem=klamra łukowa	!	!	!	!	!	!	!
(<24A-/LL	.	(24f/LL	.	.	.	.	.
24G/	.	24e-/	.	.	.	.	.
24F/	.	24d/	.	.	.	.	.
24A-/	.	24f/	.	.	.	.	.
24E-/JJ)	.	24c/JJ)	.	.	.	.	.
*v	*v	*	*	*	*	*	*
!!LO:LB:g=original
=40	=40	=40	=40	=40	=40	=40
24BB-\LL	16Bn/	.	2r	.	8g/)	.
(24d\	.	.	.	.	.	.
.	16r	.	.	.	.	.
24D\JJ	.	.	.	.	.	.
!	!	!LO:HP:a	!	!	!	!
24e-\LL	(8ccL 8f#X/	>	.	.	8r	.
24D\	.	.	.	.	.	.
24e-\JJ	.	.	.	.	.	.
24d\LL)	8bnJ 8g/)	.	.	.	8r	.
(24Bn\	.	]	.	.	.	.
24A-\JJ	.	.	.	.	.	.
24G\LL	8r	.	.	.	[8G^/	.
24GG\	.	.	.	.	.	.
24FF\JJ	.	.	.	.	.	.
=41	=41	=41	=41	=41	=41	=41
8EE-/)	2r	.	4r	.	8G/L]	.
8r	.	.	.	.	(8G/	p
8r	.	.	16r	.	8An/	.
.	.	.	(16GG\LL	p	.	.
!	!	!LO:DY:b=2	!	!	!	!
(8GG/L	.	p	16G\)	.	8Bn/J)	.
.	.	.	[16F\JJ	.	.	.
=42	=42	=42	=42	=42	=42	=42
*ped	*	*	*	*	*	*
8CC/J)	8r	.	16F\LL]	.	(4c/	<
.	.	.	(16En\	.	.	.
!	!LO:TX:t=P:problem=zapis glissando wspólny dla lewej i prawej ręki	!	!	!	!	!
4C: 4GG: 4CC:/	4e-: 4G: 4E-:/	.	16C\	.	.	.
.	.	.	16D\JJ)	.	.	.
.	.	.	.	.	16qqd/LL	.
.	.	.	.	.	16qqc/	.
.	.	.	.	.	16qqBn/	.
.	.	.	.	.	16qqc/JJ	.
.	.	.	[4E-X\	.	8g/L)	.
*Xped	*	*	*	*	*	*
(8CC/L	8r	.	.	.	(16.G'/L	[
.	.	.	.	.	32G'/JJk)	.
=43	=43	=43	=43	=43	=43	=43
*ped	*	*	*	*	*	*
8FFF/J)	8r	.	16E-\LL]	.	([8A-/L	.
!	!	!	!	!LO:HP:b:t=crescendo-:dur=6q:ext=ud	!	!LO:HP:b:t=crescendo-:dur=2qe:ext=ud
.	.	.	(16E-\	<	.	<
*	*	*	*	*	*Xtuplet	*
!	!LO:TX:t=P:problem=zapis glissando wspólny dla lewej i prawej ręki	!	!	!	!	!
4F: 4C: 4FF:/	4a-: 4c: 4A-:/	.	16D\	.	24A-/L]	.
.	.	.	.	.	24c/	.
.	.	.	16C\JJ	.	.	.
.	.	.	.	.	24g/JJ)	.
.	.	.	16D\LL)	.	24f/LL	.
.	.	.	.	.	24e-/	.
.	.	.	(16A-\	.	.	.
.	.	.	.	.	24d/JJ	.
!	!	!	!	!	!LO:TUP:b:problem=klamra łukowa	!
.	.	.	.	.	8qd/	.
*Xped	*	*	*	*	*	*
(8GG/	8r	.	16G\)	.	24c/LL	.
.	.	.	.	.	24Bn/	.
.	.	.	[16F\JJ	.	.	.
.	.	.	.	.	24d/JJ	.
!!LO:LB:g=original
=44	=44	=44	=44	=44	=44	=44
*ped	*	*	*	*	*	*
8CC/)	8r	.	16F\LL]	.	8G/	.
.	.	.	(16En\	.	.	.
!	!LO:TX:t=P:problem=zapis glissando wspólny dla lewej i prawej ręki	!	!	!	!	!
!	!	!LO:HP:b:t=crescendo un poco:dur=3q:ext=s	!	!	!	!
4B-: 4G: 4C:\	4cc: 4en: 4c:/	<	16D\	.	(4c/	.
.	.	.	16E\JJ)	.	.	.
.	.	.	16C\LL	.	.	.
.	.	.	(16E\	.	.	.
*Xped	*	*	*	*	*	*
!	!	!	!	!	!LO:TX:i:a:t=espress.	!
(8CC/L	8r	.	16F\	.	8b-\)	.
.	.	.	[16G\JJ)	.	.	.
=45	=45	=45	=45	=45	=45	=45
*ped	*	*	*	*	*	*
8FFF/J)	8r	.	16G\LL]	.	(8.a-/L	.
.	.	.	(16C\	.	.	.
!	!LO:TX:t=P:problem=zapis glissando wspólny dla lewej i prawej ręki	!	!	!	!	!
4f: 4c: 4F:\	4aa-: 4cc: 4a-:\	.	16F\	.	.	.
.	.	.	16G\JJ	.	16g/Jk	.
.	.	.	16A-\LL)	.	16f/LL)	.
.	.	.	(16F\	.	(16ee-/	.
*Xped	*	*	*	*	*	*
(8FF/L	8r	.	16G\	.	16dd/	.
.	.	.	16An\JJ	.	16cc/JJ)	.
=46	=46	=46	=46	=46	=46	=46
*ped	*	*	*	*	*	*
8BBB-/J)	8r	.	16B-\LL)	.	([8b-/L	.
*	*	*	*	*	*tuplet	*
!	!	!	!LO:TX:i:b:t=espress.	!	!	!
.	.	.	(16An\	.	.	.
(8gL [8B-\	[8bb-L 8een [8b-\	.	16B-\	.	24b-/L]	.
.	.	.	.	.	24en/	.
.	.	.	16c\JJ	.	.	.
.	.	.	.	.	24b-/JJ)	.
*Xped	*	*	*	*	*	*
8a-J 8B-\])	8bb-]J 8ff 8b-\]	.	16d\LL)	.	([8b-/L	.
.	.	.	(16B-\	.	.	.
(8BB-/L	8r	.	16c\	.	24b-/L]	.
.	.	.	.	.	24f/	.
.	.	.	16d\JJ)	.	.	.
.	.	.	.	.	24a-/JJ)	.
=47	=47	=47	=47	=47	=47	=47
8EE-/J)	2r	.	16e-\LL	.	8g/L	<
.	.	.	(16c\	<	.	.
.	.	.	.	.	8qf/	.
(8CC'/L	.	.	16G\)	.	24gm</L	.
.	.	.	.	.	24f/	.
.	.	.	(16An\JJ	.	.	.
.	.	.	.	.	24e-/JJ	.
8BBB-'/	.	.	16B-\LL)	.	(8g/L	.
.	.	.	(16c\	.	.	.
8BB-'/J)	.	.	16B-\)	[[	8d/J)	[[
.	.	.	(16A-X\JJ	.	.	.
!!LO:PB:g=original
=48	=48	=48	=48	=48	=48	=48
*ped	*	*	*	*	*	*
([4EE-/	8r	.	16G\LL)	>	[4e-/	>
.	.	.	(16A-\	.	.	.
.	(8e-L 8G'/	.	16G\	.	.	.
.	.	.	16F\JJ	]	.	.
*Xped	*	*	*	*	*	*
24EE-/LL]	8gJ 8B-'/)	.	8E-\)	.	8e-/]	]
24E-'/)	.	.	.	.	.	.
(24BB-'/JJ	.	.	.	.	.	.
24AA-'/LL	8r	.	8r	.	8r	.
24GG'/	.	.	.	.	.	.
24FF'/JJ)	.	.	.	.	.	.
=49	=49	=49	=49	=49	=49	=49
*^	*	*	*	*	*	*
!LO:TX:t=P:problem=mixed beam	!	!	!	!	!	!	!
24EE-'/LL	8ryy	8r	.	2r	.	2r	.
(24d-X\	.	.	.	.	.	.	.
24c\JJ	.	.	.	.	.	.	.
8B-/L	24B-\LL	(4g/	.	.	.	.	.
!	!	!	!LO:HP:b=2	!	!	!	!
.	24d-\	.	<	.	.	.	.
.	24A-\JJ	.	.	.	.	.	.
8G/	24G\LL	.	.	.	.	.	.
.	24d-\	.	.	.	.	.	.
.	24B-\JJ	.	.	.	.	.	.
8F/J	24F\LL	8dd-X\)	.	.	.	.	.
.	24g\	.	.	.	.	.	.
.	24B-\JJ)	.	[	.	.	.	.
=50	=50	=50	=50	=50	=50	=50	=50
*	*^	*	*	*	*	*	*
24ryy	24En\LL	8ryy	[8cc\L	.	8r	.	2r	.
!	!	!	!	!LO:HP:b=2	!	!	!	!
12g/	24g\	.	.	<	.	.	.	.
.	24c\JJ	.	.	.	.	.	.	.
24E-X/LL	8E-\	24ryy	24cc\L]	.	(8F\L	<	.	.
24g-X/	.	12g-\	(24an\	.	.	.	.	.
24c/JJ	.	.	24gg-X\JJ	.	.	.	.	.
24ryy	24D-X\LL	4ryy	[8ff\L	.	8G\	.	.	.
12f/	24f\	.	.	.	.	.	.	.
.	24F\JJ	.	.	.	.	.	.	.
24ryy	24C\LL	.	24ff\L])	.	8An\J	.	.	.
12e-/	24e-\	.	(24f\	.	.	.	.	.
.	24F\JJ	.	24ee-\JJ	.	.	.	.	.
*v	*v	*v	*	*	*	*	*	*
=51	=51	=51	=51	=51	=51	=51
*	*^	*	*	*	*	*
8BB-/L	24dd-X/LL)	8ryy	.	8B-\)	[[	8r	.
.	(>24f/	.	.	.	.	.	.
.	24e-/JJ	.	.	.	.	.	.
!	!	!	!	!LO:TX:i:b:t=pizz.	!	!	!
8BB-J 8BBB-/	24d-X/LL	8d-\L	<	8d-X 8F 8BB-\	.	(4b-\	p <
.	24f/	.	.	.	.	.	.
.	24c/JJ	.	.	.	.	.	.
4r	24B-/LL	8B-\	.	4r	.	.	.
.	24f/	.	.	.	.	.	.
.	24d-/JJ	.	.	.	.	.	.
.	24A-/LL	8A-\J	.	.	.	8ff\)	.
.	24f/	.	.	.	.	.	.
.	24d-/JJ	.	.	.	.	.	.
!!LO:LB:g=original
=52	=52	=52	=52	=52	=52	=52	=52
8r	24G/LL	8G\L	.	8r	.	([8ee-\L	.
.	24e-/	.	.	.	.	.	.
.	24d-X/JJ	.	.	.	.	.	.
*	*	*	*	*	*	*Xtuplet	*
(8AA-L 8AAA-/	24G-X/LL	8G-\	.	8c 8G-X 8AA-\	.	24ee-\L]	.
.	24a-/	.	.	.	.	24cc\	.
.	24c/JJ	.	.	.	.	24bb-\JJ)	.
8BB- 8BBB-/	24F/LL	8F\	.	4r	.	[8aa-\L	.
.	24a-/	.	.	.	.	.	.
.	24d-/JJ	.	.	.	.	.	.
8CJ 8CC/	24E-/LL	8E-\J	.	.	.	24aa-\L]	.
.	24a-/	.	.	.	.	(24a-\	.
.	24e-/JJ	.	[[	.	.	24gg-X\JJ	[[
=53	=53	=53	=53	=53	=53	=53	=53
!	!LO:TX:t=P:problem=mixed beam	!	!	!	!	!	!
8D-XL 8DD-X/)	24F/LL)	8F\	.	8r	.	8ff\)	.
.	(24cc-X\	.	p <	.	.	.	.
.	24b-\JJ	.	.	.	.	.	.
*	*	*	*	*clefC4	*	*	*
!	!	!	!	!LO:TX:i:b:t=espress. molto	!	!	!
!	!	!	!	!LO:TX:i:a:t=arco	!	!LO:TX:i:a:t=pizz.	!
8DD-J 8DDD-X/	24a-/LL	8a-\L	.	(4F/	.	8dd-X 8f 8A-/	.
.	24cc-/	.	.	.	.	.	.
.	24g-X/JJ	.	.	.	.	.	.
4r	24f/LL	8f\	.	.	.	4r	.
.	24a-/	.	.	.	.	.	.
.	24f/JJ	.	.	.	.	.	.
.	24e-/LL	8e-\J	.	8c-X\)	.	.	.
.	24a-/	.	.	.	.	.	.
.	24e-/JJ	.	.	.	.	.	.
=54	=54	=54	=54	=54	=54	=54	=54
8r	24dn/LL	8dn\L	.	[8B-\L	.	8r	.
.	24a-/	.	.	.	.	.	.
.	24c-X/JJ	.	.	.	.	.	.
*	*	*	*	*Xtuplet	*	*	*
!	!	!	!	!	!	!LO:TX:i:a:t=arco	!
4BB- 4BBB-/	24B-/LL	8B-\	.	24B-\L]	.	(8b-\L	.
.	24d/	.	.	(24B-\	.	.	<
.	24B-/JJ	.	.	24a-\JJ	.	.	.
.	24An/LL	8An\	.	[8g-X\L)	.	8cc\	.
.	24e-/	.	.	.	.	.	.
.	24cn/JJ	.	.	.	.	.	.
[8BB- 8BBB-/L	24A-X/LL	8A-\J	.	24g-\L]	.	8ddn\J	[[
.	24f/	.	[	(24G\	.	.	.
.	24d/JJ	.	.	24f\JJ	.	.	.
*	*v	*v	*	*	*	*	*
!!LO:LB:g=original
=55	=55	=55	=55	=55	=55	=55
*^	*	*	*	*	*	*
!LO:TX:t=P:problem=mixed beam	!	!	!	!	!	!	!
24BB-]LL 24EE-\	8ryy	16g-X 16B- 16G-X/)	.	8e-\)	.	8ee-\)	.
24g-X\	.	.	.	.	.	.	.
.	.	16r	.	.	.	.	.
24e-\JJ	.	.	.	.	.	.	.
*	*	*	*	*clefF4	*	*	*
!	!	!	!LO:HP:b:t=crescendo-:dur=3e:ext=ud	!LO:TX:i:b:t=pizz.	!	!LO:TX:i:a:t=pizz.	!
8B-/L	24B-\LL	(4ee-\	<	8G-X 8BB- 8EE-/	.	8gg-X 8b- 8e-\	.
.	24e-\	.	.	.	.	.	.
.	24A-\JJ	.	.	.	.	.	.
8G-X/	24G-\LL	.	.	4r	.	4r	.
.	24e-\	.	.	.	.	.	.
.	24B-\JJ	.	.	.	.	.	.
8F/J	24F\LL	8ddd-X 8dd-X\	.	.	.	.	.
.	24f\	.	.	.	.	.	.
.	24B-\JJ	.	.	.	.	.	.
=56	=56	=56	=56	=56	=56	=56	=56
8ryy	24En\LL	[8cccL [8cc\	.	8r	.	2r	.
.	(24g\	.	.	.	.	.	.
.	24c\JJ	.	.	.	.	.	.
!	!	!	!	!LO:TX:i:a:t=arco	!	!	!
24ryy	24E\LL	24ccc]L 24cc\])	.	(8C\L	p <	.	.
12g/	24g\	(24cc\	.	.	.	.	.
.	24c\JJ	24bb-\JJ	.	.	.	.	.
24ryy	24F\LL	[8aa-\L	.	8Dn\	.	.	.
12a-/	24a-\	.	.	.	.	.	.
.	24c\JJ	.	.	.	.	.	.
24ryy	24G\LL	24aa-\L]	.	8En\J)	.	.	.
12b-/	24b-\	24cc\	.	.	.	.	.
.	24c\JJ	24gg\JJ	.	.	.	.	.
*v	*v	*	*	*	*	*	*
=57	=57	=57	=57	=57	=57	=57
8A-\L)	24ff\LL)	.	(4F\	.	2r	.
.	(24f\	p	.	.	.	.
.	24cc\JJ	.	.	.	.	.
16.F\L	24a-M</LL	.	.	.	.	.
.	24g/	.	.	.	.	.
.	24f/JJ	.	.	.	.	.
(32F\JJk	.	.	.	.	.	.
.	.	.	16qqG/LL	.	.	.
.	.	.	16qqF/	.	.	.
.	.	.	16qqEn/	.	.	.
.	.	.	16qqF/JJ	.	.	.
8c\L)	24a-/LL	.	8c\L)	.	.	.
.	24b-/	.	.	.	.	.
.	24a-/JJ	.	.	.	.	.
(8B-J 8C\	24g/LL	.	(16.C\L	.	.	.
.	24f/	.	.	.	.	.
.	24en/JJ	.	.	.	.	.
.	.	.	32C\JJk)	[[	.	.
!!LO:LB:g=original
=58	=58	=58	=58	=58	=58	=58
8D-X\)	4f 4A-/)	.	([8D-X\L	.	2r	.
8D-/L	.	.	24D-\L]	.	.	.
.	.	.	24F\	.	.	.
.	.	.	24c\JJ	.	.	.
8EEn/	[<8gL 8B-/	.	24B-\LL)	.	.	.
.	.	.	24A-\	.	.	.
.	.	.	24G\JJ	.	.	.
*	*	*	*tuplet	*	*	*
!	!	!	!LO:TUP:a:problem=klamra łukowa, brak numeru	!	!	!
8BB-/J	[8ccJ 8g_ [8c/	.	24F\LL	.	.	.
.	.	.	24En\	.	.	.
.	.	.	24G\JJ	.	.	.
*	*	*	*Xtuplet	*	*	*
=59	=59	=59	=59	=59	=59	=59
8AA-/	24cc]LL 24g] 24c/]	.	8F\L	.	2r	.
.	24f/	.	.	.	.	.
.	24ee-/JJ	.	.	.	.	.
!	!	!LO:HP:b:t=crescendo molto-:dur=9q:ext=ud	!	!LO:HP:b:t=crescendo molto-:dur=6:ext=ud	!	!
8r	24dd-X\LL	<	(8f\	<	.	.
.	24cc\	.	.	.	.	.
.	24b-\JJ	.	.	.	.	.
16r	24a-\LL	.	8e-\	.	.	.
.	24g\	.	.	.	.	.
[16D-X\KL	.	.	.	.	.	.
.	[24bb-\JJ	.	.	.	.	.
[8e-J 8D-\]	24bb-\LL]	.	8d-X\J)	.	.	.
.	24g\	.	.	.	.	.
.	[24b-\JJ	.	.	.	.	.
=60	=60	=60	=60	=60	=60	=60
8e-] 8C\	24b-\LL]	.	8c\L	.	2r	.
.	24an\	.	.	.	.	.
.	24gg-X\JJ	.	.	.	.	.
8r	24ee-\LL	.	(8g-X\	.	.	.
.	24dd-X\	.	.	.	.	.
.	24cc\JJ	.	.	.	.	.
16r	24b-\LL	.	8f\)	.	.	.
.	24a\	.	.	.	.	.
[16E-\KL	.	.	.	.	.	.
.	[24ccc\JJ	.	.	.	.	.
[8fJ 8E-\]	24ccc\LL]	.	(8e-\J	.	.	.
.	24a\	.	.	.	.	.
.	[24cc\JJ	.	.	.	.	.
=61	=61	=61	=61	=61	=61	=61
*^	*	*	*	*	*	*
8f] 8D\	4.ryy	24cc\LL]	.	8d\L)	.	2r	.
.	.	24bn\	.	.	.	.	.
.	.	24aa-\JJ	.	.	.	.	.
8r	.	24ff\LL	.	(8a-\	.	.	.
.	.	24ee-\	.	.	.	.	.
.	.	24dd\JJ	.	.	.	.	.
8r	.	24cc\LL	.	8f\	.	.	.
.	.	24b\	.	.	.	.	.
.	.	[24aa-\JJ	.	.	.	.	.
8C/	16C\LL	24aa-\LL]	.	8e-\J	.	.	.
.	.	24ff\	.	.	.	.	.
.	16e-\JJ	.	.	.	.	.	.
.	.	[24fff\JJ	.	.	.	.	.
!!LO:PB:g=original
=62	=62	=62	=62	=62	=62	=62	=62
8d/	16d\LL	24fff\LL]	.	8d\)	.	2r	.
.	.	24ff\	.	.	.	.	.
.	16BBn\JJ	.	.	.	.	.	.
.	.	[24aa-\JJ	.	.	.	.	.
8C/	24C\LL	24aa-\LL]	.	8r	.	.	.
.	24A-\	24ff\	.	.	.	.	.
.	24c\JJ	[24fff\JJ	.	.	.	.	.
16d\LL	4ryy	24fff\LL]	.	4r	.	.	.
.	.	24ff\	.	.	.	.	.
!LO:SIC:v:s=16BB-\JJ	!	!	!	!	!	!	!
16BB\JJ	.	.	.	.	.	.	.
.	.	[24aa-\JJ	.	.	.	.	.
24AA-\LL	.	24aa-\LL]	.	.	.	.	.
24F\	.	24ff\	.	.	.	.	.
24c\JJ	.	[24fff\JJ	.	.	.	.	.
*v	*v	*	*	*	*	*	*
=63	=63	=63	=63	=63	=63	=63
(16qqBn/LL	.	.	.	.	.	.
16qqF/JJ	.	.	.	.	.	.
8GG/)	8fff\]	.	8r	.	8r	.
*	*	*	*clefC4	*	*	*
!	!	!	!	!	!LO:TX:i:a:t=arco	!
!	!	!LO:DY:b=2	!	!	!	!
24GGG/LL	4G^>/	pp	(8g\L	p	(8gg\L	p
24GG/	.	.	.	.	.	.
24GGG/JJ	.	.	.	.	.	.
24GG/LL	.	.	8f#X\	.	8aan\	.
24GGG/	.	.	.	.	.	.
[24GG/J	.	.	.	.	.	.
8GG_J [8GGG/	24G/LL	[ pp	[8fn\J	.	8bbn\J)	.
.	24g/	.	.	.	.	.
.	[24G/JJ	.	.	.	.	.
=64	=64	=64	=64	=64	=64	=64
!	!	!	!	!	!LO:TX:i:b:t=espress.	!
24GG]LL 24GGG/]	8g 8G/]	.	16f\LL])	.	(4ccc\	.
24GGG/	.	.	.	.	.	.
.	.	.	(16en\	.	.	.
24GG/JJ	.	.	.	.	.	.
24GGG/LL	4G^>/	.	16c\	.	.	.
24GG/	.	.	.	.	.	.
.	.	.	16d\JJ)	.	.	.
24GGG/JJ	.	.	.	.	.	.
.	.	.	.	.	16qqddd/LL	.
.	.	.	.	.	16qqccc/	.
.	.	.	.	.	16qqbbn/	.
.	.	.	.	.	16qqccc/JJ	.
24GG/LL	.	.	[4e-X\	.	8eee-\L)	.
24GGG/	.	.	.	.	.	.
[>24GG/J	.	.	.	.	.	.
8GG_J [8GGG/	24G/LL	.	.	.	[16.gg\L	.
.	24g/	.	.	.	.	.
.	[24G/JJ	.	.	.	.	.
.	.	.	.	.	32gg\JJk]	.
!!LO:LB:g=original
=65	=65	=65	=65	=65	=65	=65
24GG]LL 24GGG/]	8g 8G/]	.	16e-\LL]	.	[8aa-\L	.
24GGG/	.	.	.	.	.	.
.	.	.	(16e-\	.	.	.
24GG/JJ	.	.	.	.	.	.
24GGG/LL	4G^>/	.	16d\)	.	24aa-\L]	.
24GG/	.	.	.	.	(24ccc\	.
.	.	.	(16c\JJ	.	.	.
24GGG/JJ	.	.	.	.	24ggg\JJ	.
24GG/LL	.	.	16d\LL)	.	24fff\LL	.
24GGG/	.	.	.	.	24eee-\	.
.	.	.	(16a-\	.	.	.
[>24GG/J	.	.	.	.	24ddd\JJ)	.
.	.	.	.	.	(<8qddd/	.
*	*	*	*	*	*tuplet	*
!	!	!	!	!	!LO:TUP:a:problem=klamra łukowa, brak numeru	!
8GG_J [8GGG/	24G/LL	.	16g\)	.	24ccc\LL)	.
.	24g/	.	.	.	24bbn\	.
.	.	.	[16f\JJ	.	.	.
.	[24G/JJ	.	.	.	24ddd\JJ	.
*	*	*	*	*	*Xtuplet	*
=66	=66	=66	=66	=66	=66	=66
24GG]LL 24GGG/]	8gL 8G/]	.	16f\LL]	.	8gg\	.
24GGG/	.	.	.	.	.	.
.	.	.	(16en\	.	.	.
[>24GG/J	.	.	.	.	.	.
!	!	!	!	!	!	!LO:HP:b:t=cre-scen-do:dur=3qe:ext=cd
8GG_J [8GGG/	24G/L	.	16d\)	.	(4ccc\	<
.	24g/	.	.	.	.	.
.	.	.	(16e\JJ	.	.	.
.	[24G/JJ	.	.	.	.	.
24GG]LL 24GGG/]	8gL 8G/]	.	16c\LL)	.	.	.
24GGG/	.	.	.	.	.	.
.	.	.	(16e\	.	.	.
[>24GG/J	.	.	.	.	.	.
8GG_J [8GGG/	24G/L	.	16f\	.	[8bbb-\)	.
.	24g/	.	.	.	.	.
.	.	.	16g\JJ)	.	.	.
.	[24G/JJ	.	.	.	.	.
=67	=67	=67	=67	=67	=67	=67
24GG]LL 24GGG/]	8gL 8G/]	.	8f\L	.	16bbb-\LL]	.
24GGG/	.	.	.	.	.	.
.	.	.	.	.	(16aaa-\	.
[>24GG/J	.	.	.	.	.	.
8GG_J [8GGG/	24G/L	.	[8a-\J	.	16ggg\)	.
.	24g/	.	.	.	.	.
.	.	.	.	.	(16fff\JJ	.
.	[24G/JJ	.	.	.	.	.
24GG]LL 24GGG/]	8gL 8G/]	.	16a-\LL]	.	16eee-\LL)	.
24GGG/	.	.	.	.	.	.
.	.	.	(16f\	.	(16ddd\	.
[>24GG/J	.	.	.	.	.	.
8GG_J [8GGG/	24G/L	.	16e-\	.	16eee-\	.
.	24g/	.	.	.	.	.
.	.	.	16d\JJ	.	16fff\JJ)	.
.	[24G/JJ	.	.	.	.	.
!!LO:LB:g=original
=68	=68	=68	=68	=68	=68	=68
24GG]LL 24GGG/]	8g 8G/]	.	8e-\)	.	([8ggg\L	.
24GGG/	.	.	.	.	.	.
24GG/JJ	.	.	.	.	.	.
*	*clefF4	*	*clefF4	*	*	*
!LO:TX:i:a:t=stringendo	!	!	!	!	!	!
(8GGG/L	(24GG\LL	f <	(8GG/L	.	24ggg\L]	.
.	24G\	.	.	.	24gg\	.
.	24GG\JJ	.	.	.	24fff\JJ)	.
!	!	!	!LO:TX:i:b:t=stringendo	!	!LO:TX:i:b:t=stringendo	!
8AAAn/	24AAn\LL	.	8AAn/	.	([8eee-\L	.
.	24An\	.	.	.	.	.
.	24AA\JJ	.	.	.	.	.
8BBBn/J	24BBn\LL	.	8BBn/J)	.	24eee-\L]	.
.	24Bn\	.	.	.	24gg\	.
.	24BB\JJ	.	.	.	24ddd\JJ)	.
=69	=69	=69	=69	=69	=69	=69
8CC/L	24C\LL	.	8C\L	.	24ccc\LL	.
.	24c\	.	.	.	(24cc\	.
.	24C\JJ	.	.	.	24bb-\JJ	.
16DD/L	24D\LL	.	(16D\L	.	24aa-\LL)	.
.	24d\)	.	.	.	(24cc\	.
16EEn/JJ	.	.	16En\JJ	.	.	.
.	24enJJ 24En'\	.	.	.	24gg\JJ	.
16FF/LL	(24F\LL	.	16F\LL	.	24ff\LL)	.
.	24f\)	.	.	.	(24f\	.
16GG/	.	.	16G\	.	.	.
.	24gJJ 24G'\	.	.	.	24ee-\JJ	.
16AA-/JJ)	16a- 16A-'\	[	16A-\)	.	24dd\LL)	.
.	.	.	.	.	(24d\	.
16r	16r	.	(<16AA-\JJ	.	.	.
.	.	.	.	.	24cc\JJ	.
=70	=70	=70	=70	=70	=70	=70
!	!LO:TX:i:b:t=a tempo	!	!LO:TX:i:b:t=a tempo	!	!LO:TX:i:a:t=a tempo	!
8GG/	8g 8G\	.	8GG/)	.	24bn/LL)	.
.	.	.	.	.	(24G/	.
.	.	.	.	.	24a-/JJ	.
!	!	!	!LO:TX:i:b:t=pizz.	!	!	!
8r	8r	.	8Bn 8F 8GG\	.	24g/LL)	.
.	.	.	.	.	(24G/	.
.	.	.	.	.	24f/JJ	.
8r	8r	.	4r	.	24d/LL)	.
.	.	.	.	.	(24G/	.
.	.	.	.	.	24c/JJ	.
8GG 8GGG/	8G\	p	.	.	24Bn/LL)	.
.	.	.	.	.	(24G/	.
.	.	.	.	.	24e-/JJ	.
!!LO:LB:g=original
=71	=71	=71	=71	=71	=71	=71
4r	4r	.	8r	.	24d/LL)	p
.	.	.	.	.	(24G/	.
.	.	.	.	.	24a-/JJ	.
!	!	!	!	!	!	!LO:HP:b:t=diminuendo poco a poco:dur=3qe:ext=s
.	.	.	8Bn 8F 8GG\	.	24g/LL)	>
.	.	.	.	.	24G'/	.
.	.	.	.	.	24f'/JJ	.
8r	8r	.	4r	.	24d/LL	.
.	.	.	.	.	(24G/	.
.	.	.	.	.	24c/JJ	.
8GG 8GGG/	8G\	.	.	.	24Bn/LL)	.
.	.	.	.	.	24G'/	.
.	.	.	.	.	24e-'/JJ	.
=72	=72	=72	=72	=72	=72	=72
8r	8r	.	8r	.	24d'/LL	.
.	.	.	.	.	24G'/	.
.	.	.	.	.	24c'/JJ	.
8GG 8GGG/	8G\	.	8Bn 8F 8GG\	.	24Bn'/LL	.
.	.	.	.	.	24G'/	.
.	.	.	.	.	24e-'/JJ	.
8r	8r	.	8r	.	24d'/LL	.
.	.	.	.	.	24G'/	.
.	.	.	.	.	24c'/JJ	.
8GG 8GGG/	8G\	.	8B 8F 8GG\	.	24B'/LL	.
.	.	.	.	.	24G'/	.
.	.	.	.	.	24e-'/JJ	.
=73	=73	=73	=73	=73	=73	=73
8r	8r	.	8r	.	24d'/LL	pp
.	.	.	.	.	(24A-/	.
.	.	.	.	.	24G/JJ)	.
8GG 8GGG/	8G\	p	8Bn 8F 8GG\	.	(24A-/LL	.
.	.	.	.	.	24G/)	.
.	.	.	.	.	(24A-/JJ	.
4r	4r	.	4r	.	24G/LL)	.
.	.	.	.	.	(24A-/	.
.	.	.	.	.	24G/JJ)	.
.	.	.	.	.	(24A-/LL	.
.	.	.	.	.	24G/)	.
.	.	.	.	.	(24A-/JJ	.
=74	=74	=74	=74	=74	=74	=74
4r	8r	.	4r	.	4.G/)	.
.	(8fL [8An\	>	.	.	.	.
8r	8c 8A\]	.	8r	.	.	.
*	*	*	*clefC4	*	*	*
(8GG/	8dJ 8Bn 8F\	]]	[8G^>/	.	8r	.
*kcancel	*kcancel	*	*kcancel	*	*kcancel	*
!!LO:PB:g=original
=75||	=75||	=75||	=75||	=75||	=75||	=75||
*k[]	*k[]	*	*k[]	*	*k[]	*
*Xtuplet	*Xtuplet	*	*	*	*	*
*^	*^	*	*	*	*	*
!	!	!	!	!	!LO:TX:i:a:t=espressivo molto	!	!	!
24CC/LL)	8ryy	24eLL 24c 24E\)	8ryy	p	8G/]	.	2r	.
!	!	!LO:TX:i:b:t=legato	!	!	!	!	!	!
(>24AA/	.	(24A\	.	.	.	.	.	.
24GG/JJ	.	24G\JJ	.	.	.	.	.	.
24CC/LL	8CC\L	8E/	24E\LL	.	(4e\	.	.	.
24AA/	.	.	24A\	.	.	.	.	.
24GG/JJ	.	.	24G\JJ	.	.	.	.	.
24CC#X/LL	8CC#\	8E/	24E\LL	.	.	.	.	.
24AA/	.	.	24A\	.	.	.	.	.
24GG/JJ	.	.	24G\JJ	.	.	.	.	.
24DD/LL	8DD\J	8F/	24F\LL	.	8f\)	.	.	.
24AA/	.	.	24A\	.	.	.	.	.
24GG/JJ)	.	.	24G\JJ)	.	.	.	.	.
=76	=76	=76	=76	=76	=76	=76	=76	=76
(24EE/LL	8EE\L	8C#X/	(>24C#\LL	.	8c#X\	.	2r	.
24AA/	.	.	24A\	.	.	.	.	.
24GG/JJ	.	.	24G\JJ	.	.	.	.	.
24FF/LL	8FF\	8D/	24D\LL	.	4d\	.	.	.
24AA/	.	.	24A\	.	.	.	.	.
24GG/JJ	.	.	24G\JJ	.	.	.	.	.
24GGG/LL	8GGG\	8BB/	24BB\LL	.	.	.	.	.
24AA/	.	.	24A\	.	.	.	.	.
24GG/JJ	.	.	24G\JJ	.	.	.	.	.
24FF/LL	8FF\J	8D/	24D\LL	.	(16B\LL	.	.	.
24AA/	.	.	24A\	.	.	.	.	.
.	.	.	.	.	16A\JJ	.	.	.
24GG/JJ)	.	.	24G\JJ)	.	.	.	.	.
=77	=77	=77	=77	=77	=77	=77	=77	=77
(24EE/LL	8EE\L	8C/	(>24C\LL	.	8G\L)	.	2r	.
24AA/	.	.	24A\	.	.	.	.	.
24GG/JJ	.	.	24G\JJ	.	.	.	.	.
24EE/LL	8EE\	8C#X/	24C#\LL	.	8g\J	.	.	.
24AA/	.	.	24A\	.	.	.	.	.
24GG/JJ	.	.	24G\JJ	.	.	.	.	.
24DD/LL	8DD\	8F/	24F\LL	.	(8B\L	.	.	.
24AA/	.	.	24A\	.	.	.	.	.
24GG/JJ	.	.	24G\JJ	.	.	.	.	.
24CCn/LL	8CCn\J	8E/	24E\LL	.	16c\L	.	.	.
24AA/	.	.	24A\	.	.	.	.	.
.	.	.	.	.	16c\JJ)	.	.	.
24GG/JJ)	.	.	24G\JJ)	.	.	.	.	.
*	*	*v	*v	*	*	*	*	*
=78	=78	=78	=78	=78	=78	=78	=78
24FF/LL	4FF\	24r	.	4e\	.	4r	.
(<24C#X/	.	(24A\LL	<	.	<	.	.
24D/JJ	.	24B\JJ	.	.	.	.	.
24E/LL	.	24c#X\LL	.	.	.	.	.
24D/	.	24B\	.	.	.	.	.
24C#/JJ)	.	24A\JJ)	.	.	.	.	.
24FF/LL	8FF\L	24r	.	(8d\L	.	8r	.
!	!	!LO:TUP:a:problem=klamra łukowa	!	!	!	!	!
24F/	.	(24d\LL	.	.	.	.	.
24D/JJ	.	24A\JJ)	.	.	.	.	.
24EE/LL	8EE\J	24r	.	8e\J)	[[	8ee\	.
!	!	!LO:TUP:a:problem=klamra łukowa	!	!	!	!	!
24G/	.	(24e\LL	.	.	.	.	.
!LO:SIC:v:s=24Cn/JJ	!	!	!	!	!	!	!
24C#/JJ	.	24A\JJ)	[	.	.	.	.
*	*	*clefG2	*	*	*	*	*
!!LO:LB:g=original
=79	=79	=79	=79	=79	=79	=79	=79
!	!	!	!LO:HP:b:t=crescendo sempre_:dur=6q:ext=s:ext2=ud	!	!	!	!
24DD/LL	8DD\	24r	<	(4f\	<	(4ff\	.
(<24AA/	.	(24a/LL	.	.	.	.	<
24D/JJ	.	24f/JJ	.	.	.	.	.
24F\LL	4.ryy	24d/LL	.	.	.	.	.
24D\	.	24f/	.	.	.	.	.
24C\JJ	.	24d/JJ	.	.	.	.	.
.	.	.	.	16qqg/LL	.	16qqgg/LL	.
.	.	.	.	16qqf/	.	16qqff/	.
.	.	.	.	16qqe/	.	16qqee/	.
.	.	.	.	16qqf/JJ)	.	16qqff/JJ)	.
24BB\LL	.	24f/LL	.	(8.a\L	.	(8.aa\L	.
24F\	.	24d/	.	.	.	.	.
24BB\JJ	.	24f/JJ	.	.	.	.	.
24E\LL	.	24d/LL	.	.	.	.	.
24BB-X\	.	24g/	.	.	.	.	.
.	.	.	.	16g\Jk)	[[	16gg\Jk)	[[
24E\JJ	.	24d/JJ	.	.	.	.	.
*v	*v	*	*	*	*	*	*
=80	=80	=80	=80	=80	=80	=80
!	!	!	!	!LO:HP:b:t=cre-scen-do-:dur=6q:ext=ud	!	!LO:HP:b:t=cre-scen-do-:dur=6q:ext=ud
24AA\LL	24a/LL	.	8e\	<	8ee\	<
24E\	24c#X/	.	.	.	.	.
24AA\JJ	24a/JJ	.	.	.	.	.
24F\LL	24cn/LL	.	(4f\	.	(4ff\	.
24AA-X\	24cc 24f/	.	.	.	.	.
24F\JJ	24c/JJ	.	.	.	.	.
24AA-\LL	24ccLL 24f/	.	.	.	.	.
24F\	24c/	.	.	.	.	.
24AA-\JJ	24ccJJ 24f/	.	.	.	.	.
24B-X\LL	24c/LL	.	8e\)	.	8ee\)	.
24GG\	24cc 24e/	.	.	.	.	.
24B-\JJ	24c/JJ	.	.	.	.	.
=81	=81	=81	=81	=81	=81	=81
24FF\LL	24cc#XLL 24g/	.	8c#X\L	.	8cc#X\L	.
24B-X\	24c#X/	.	.	.	.	.
24FF\JJ	24cc#JJ 24g/	.	.	.	.	.
24A\LL	24d/LL	.	([8d\J	.	([8dd\J	.
24FF\	24dd 24f/	.	.	.	.	.
24A\JJ	24d/JJ	.	.	.	.	.
24FF\LL	24ddLL 24f/	.	16d\LL]	.	16dd\LL]	.
24A\	24d/	.	.	.	.	.
.	.	.	16A\)	.	16a\)	.
24FF\JJ	24ddJJ 24f/	.	.	.	.	.
24A\LL	24d/LL	.	16A\	.	16a\	.
24FF#X\	24dd 24cc#/	.	.	.	.	.
.	.	.	16A\JJ	.	16a\JJ	.
24A\JJ	24d/JJ	.	.	.	.	.
=82	=82	=82	=82	=82	=82	=82
24GG\LL	24eeLL 24cc\	.	(4c\	.	(4cc\	.
24G\	24e\	.	.	.	.	.
24GG\JJ	24eeJJ 24cc\	.	.	.	.	.
24E-X/LL	24f#X\LL	.	.	.	.	.
24GG/	24ff#X 24cc\	.	.	.	.	.
24E-/JJ	24f#\JJ	.	.	.	.	.
24GG/LL	24ggLL 24b\	.	8B\)	.	8b\)	.
24D/	24g\	.	.	.	.	.
24GG/JJ	24ggJJ 24b\	.	.	.	.	.
24D/LL	24g\LL	.	8r	.	8r	.
24FF/	24gg 24b\	.	.	.	.	.
24D/JJ	[<24g\JJ	.	.	.	.	.
*	*	*	*clefF4	*	*	*
!!LO:LB:g=original
=83	=83	=83	=83	=83	=83	=83
*^	*	*	*^	*	*	*
!LO:TX:t=P:problem=mixed beam	!	!	!	!	!	!	!	!
24EE/LL)	8ryy	8gg 8cc 8g\])	.	8r	8ryy	.	8r	.
24c\	.	.	f	.	.	.	.	.
24G\JJ	.	.	.	.	.	.	.	.
*	*	*	*	*	*	*	*Xtuplet	*
8C/	24C\LL	(4eee 4ee\	.	4.GG/	(>8CC\L	f	24gLL 24G/	f
.	24e\	.	.	.	.	.	24g 24G/	.
.	24G\JJ	.	.	.	.	.	[24gJJ [24G/	.
8C#X/	24C#\LL	.	.	.	8CC#X\	.	8g]L 8G/]	.
.	24e\	.	.	.	.	.	.	.
.	24G\JJ	.	.	.	.	.	.	.
8D/	24D\LL	8fff 8ff\	.	.	8DD\J)	.	24gL 24G/	.
.	24f\	.	.	.	.	.	24g 24G/	.
.	24G\JJ	.	.	.	.	.	[24gJJ [24G/	.
=84	=84	=84	=84	=84	=84	=84	=84	=84
8E/	24E\LL	8ccc#X 8cc#X\)	.	4.GG/	(8EE\	.	8g]L 8G/]	.
.	24g\	.	.	.	.	.	.	.
.	24G\JJ	.	.	.	.	.	.	.
4.F/	24F\LL	(4ddd 4dd\	.	.	4FF\)	.	24gL 24G/	.
.	24g\	.	.	.	.	.	24g 24G/	.
.	24B\JJ	.	.	.	.	.	[24gJJ [24G/	.
.	24G\LL	.	.	.	.	.	8g]L 8G/]	.
.	24d\	.	.	.	.	.	.	.
.	24B\JJ	.	.	.	.	.	.	.
.	24G\LL	16bbLL 16b\	.	[8GG/	(8FF\	.	24gL 24G/	.
.	24d\	.	.	.	.	.	24g 24G/	.
.	.	16aaJJ 16a\	.	.	.	.	.	.
.	24B\JJ	.	.	.	.	.	[24gJJ [24G/	.
=85	=85	=85	=85	=85	=85	=85	=85	=85
8E/	24E\LL	8ggL 8g\)	.	8GG] 8EE/)	8ryy	.	8g]L 8G/]	.
.	24c\	.	.	.	.	.	.	.
.	24G\JJ	.	.	.	.	.	.	.
8C/	24C\LL	[8eeeJ [8ee\	.	4.GG/	(>8CC\L	.	24gL 24G/	.
.	24e\	.	.	.	.	.	24g 24G/	.
.	24G\JJ	.	.	.	.	.	[24gJJ [24G/	.
8C#X/	24C#\LL	16eee]LL 16ee\]	.	.	8CC#X\	.	8g]L 8G/]	.
.	24e\	.	.	.	.	.	.	.
.	.	(16eee 16ee\	.	.	.	.	.	.
.	24G\JJ	.	.	.	.	.	.	.
8D/	24D\LL	16ggg 16gg\	.	.	8DD\J)	.	24gL 24G/	.
.	24f\	.	.	.	.	.	24g 24G/	.
.	.	[16fffJJ [16ff\	.	.	.	.	.	.
.	24G\JJ	.	.	.	.	.	[24gJJ [24G/	.
=86	=86	=86	=86	=86	=86	=86	=86	=86
8E/	24E\LL	16fff]LL 16ff\])	.	4.GG/	(8EE\	.	8g]L 8G/]	.
.	24g\	.	.	.	.	.	.	.
!	!	!LO:TX:i:a:t=espress.	!	!	!	!	!	!
.	.	16ccc#X 16cc#X\	.	.	.	.	.	.
.	24G\JJ	.	.	.	.	.	.	.
4.F/	24F\LL	16eee 16ee\	.	.	4FF\)	.	24gL 24G/	.
.	24g\	.	.	.	.	.	24g 24G/	.
.	.	16dddJJ 16dd\	.	.	.	.	.	.
.	24B\JJ	.	.	.	.	.	[24gJJ [24G/	.
.	24G\LL	16cccnLL 16ccn\	.	.	.	.	8g]L 8G/]	.
.	24d\	.	.	.	.	.	.	.
.	.	16bb 16b\	.	.	.	.	.	.
.	24B\JJ	.	.	.	.	.	.	.
.	.	(<8qbb/	.	.	.	.	.	.
.	24G\LL	16aa 16a\)	.	([8GG 8FF/	8ryy	.	24gL 24G/	.
.	24d\	.	.	.	.	.	24g 24G/	.
.	.	16ggJJ 16g\	.	.	.	.	.	.
.	24B\JJ	.	.	.	.	.	[24gJJ [24G/	.
*	*	*	*	*v	*v	*	*	*
!!LO:LB:g=original
=87	=87	=87	=87	=87	=87	=87	=87
*	*	*	*	*	*	*^	*
8E/	24E\LL	4ggg 4gg\	.	8GG] 8EE/)	.	8g] 8G/]	8ryy	.
.	24g\	.	>	.	>	.	.	>
.	24c\JJ	.	.	.	.	.	.	.
8G/	24G\LL	.	.	(8GG/L	.	(8b-X/L	4G\	.
.	24g\	.	.	.	.	.	.	.
.	24c\JJ	.	.	.	.	.	.	.
8B-X/	24B-\LL	8cccL 8cc\	.	8BB-X/)	.	8g/)	.	.
.	24g\	.	.	.	.	.	.	.
.	24c\JJ	.	.	.	.	.	.	]
8A/	24A\LL	8fffJ 8ff\	]]	(8AA/J	]	(8f/J	8A\	.
.	24f\	.	.	.	.	.	.	.
.	24c\JJ	.	.	.	.	.	.	.
*	*	*	*	*	*	*v	*v	*
=88	=88	=88	=88	=88	=88	=88	=88
!	!	!	!LO:HP:b:t=dim._:dur=2q:ext=ud	!	!	!	!
8G#X/	24G#\LL	8.eeeL 8.ee\	>	8GG#X/L)	.	8eL 8B/)	.
.	24e\	.	.	.	.	.	.
.	24B\JJ	.	.	.	.	.	.
!	!	!	!	!	!LO:HP:b:t=dim.-:dur=1qe:ext=ud	!	!LO:HP:b:t=dim.-:dur=1qe:ext=ud
8EE/	24EE\LL	.	.	(8EE/	>	(8g#X 8G#X/	>
.	24g#X\	.	.	.	.	.	.
.	.	16dddJk 16dd\	.	.	.	.	.
.	24B\JJ	.	.	.	.	.	.
8A/	24A\LL	8cccL 8cc\	.	8AA/	.	8a 8A/	.
.	24e\	.	.	.	.	.	.
.	24c\JJ	.	.	.	.	.	.
8BB/	24BB\LL	8bbJ 8b\	.	8BB/J)	.	8gnJ 8Gn/)	.
.	24e\	.	.	.	.	.	.
.	24Gn\JJ	.	.	.	.	.	.
=89	=89	=89	=89	=89	=89	=89	=89
*	*	*	*	*	*	*^	*
4C/	24C\LL	4aa 4a\	pp <	(4C/	pp <	(8f#X/L	2A\	pp <
.	24e\	.	.	.	.	.	.	.
.	24A\JJ	.	.	.	.	.	.	.
.	24F#X\LL	.	.	.	.	8e/	.	.
.	24e\	.	.	.	.	.	.	.
.	24A\JJ	.	.	.	.	.	.	.
.	.	16qqbb/LL	.	.	.	.	.	.
.	.	16qqaa/	.	.	.	.	.	.
.	.	16qqgg/	.	.	.	.	.	.
.	.	16qqaa/JJ	.	.	.	.	.	.
4BB/	24BB\LL	8.bbL 8.b\	.	4BB/)	.	8d#X/	.	.
.	24d#X\	.	.	.	.	.	.	.
.	24A\JJ	.	.	.	.	.	.	.
.	24F#\LL	.	.	.	[[	8f#/J	.	[[
.	24d#\	.	.	.	.	.	.	.
.	.	16aaJk 16a\	[[	.	.	.	.	.
.	24A\JJ	.	.	.	.	.	.	.
*	*	*	*	*	*	*v	*v	*
=90	=90	=90	=90	=90	=90	=90	=90
*	*	*^	*	*	*	*	*
!	!	!	!	!LO:HP:b=2	!	!	!	!
8ryy	24E\LL	8ff 8g\	8ryy	>	4.EE/	>	8e 8G/)	>
.	24e\	.	.	.	.	.	.	.
.	24B\JJ	.	.	.	.	.	.	.
*	*	*	*tuplet	*	*	*	*	*
!	!	!	!LO:TUP:a	!	!	!	!	!
(8c/L	24A\LL	(8dd#X/L	24f#X\LL	.	.	.	(24c/LL	.
.	24G\	.	24g\	.	.	.	24B/	.
.	24F#X\JJ	.	24a\J	]	.	.	24A/J	.
*	*	*	*Xtuplet	*	*	*	*	*
16B/Jk)	(24G\LL	8ee/J)	8e\J	.	.	]	8G/J)	]
.	24E\	.	.	.	.	.	.	.
8.rBByy	.	.	.	.	.	.	.	.
.	24BB\JJ	.	.	.	.	.	.	.
*	*	*	*	*	*clefC4	*	*	*
.	24GG\LL	8r	8ryy	.	8G/	.	8g/	.
.	24FF#X\	.	.	.	.	.	.	.
.	24FFn\JJ)	.	.	.	.	.	.	.
*v	*v	*	*	*	*	*	*	*
*	*v	*v	*	*	*	*	*
!!LO:PB:g=original
=91	=91	=91	=91	=91	=91	=91
!	!	!	!	!	!LO:TX:i:b:t=con. gran suonorita	!
8EE/L	24r	p	(8.d\L	.	(8.dd\L	.
.	(24gLL 24B-X/	.	.	.	.	.
.	24cJJ 24G/)	.	.	.	.	.
8GG/	24r	.	.	.	.	.
.	(24dLL 24B-/	.	.	.	.	.
.	.	.	16d-X\Jk)	.	16dd-X\Jk)	.
.	24cJJ 24G/)	.	.	.	.	.
8C/	24r	.	(8c\L	.	(8cc\L	.
.	(24gLL 24B-/	.	.	.	.	.
.	24cJJ 24G/)	.	.	.	.	.
8EE/J	24r	.	8g\J)	.	8gg\J)	.
.	(24dLL 24B-/	.	.	.	.	.
.	24cJJ 24G/)	.	.	.	.	.
=92	=92	=92	=92	=92	=92	=92
*	*^	*	*	*	*	*
8FF/L	24r	24ryy	.	[4g\	.	[4gg\	.
.	(24a/LL	12c\	.	.	.	.	.
.	24A/JJ)	.	.	.	.	.	.
8AA/	24r	24ryy	.	.	.	.	.
.	(24d/LL	12A\	.	.	.	.	.
.	24c/JJ)	.	.	.	.	.	.
8C/	24r	24ryy	.	16g\LL]	.	16gg\LL]	.
.	(24a/LL	12c\	.	.	.	.	.
.	.	.	.	(16f~\	.	(16ff~\	.
.	24A/JJ)	.	.	.	.	.	.
8FF/J	24r	24ryy	.	16e~\	.	16ee~\	.
.	(24d/LL	12A\	.	.	.	.	.
.	.	.	.	16d~\JJ)	.	16dd~\JJ)	.
.	24c/JJ)	.	.	.	.	.	.
*	*v	*v	*	*	*	*	*
=93	=93	=93	=93	=93	=93	=93
8DD/L	24r	.	(8.c\L	.	(8.cc\L	.
.	(24fLL 24A/	.	.	.	.	.
.	24B-XJJ 24F/)	.	.	.	.	.
8FF/	24r	.	.	.	.	.
.	(24cLL 24A/	.	.	.	.	.
.	.	.	16c-X\Jk)	.	16cc-X\Jk)	.
.	24B-JJ 24F/)	.	.	.	.	.
8BB-X/	24r	.	(8B-X\L	.	(8b-X\L	.
.	(24fLL 24A/	.	.	.	.	.
.	24B-JJ 24F/)	.	.	.	.	.
8DD/J	24r	.	8f\J)	.	8ff\J)	.
.	(24cLL 24A/	.	.	.	.	.
.	24B-JJ 24F/)	.	.	.	.	.
=94	=94	=94	=94	=94	=94	=94
*	*^	*	*	*	*	*
(8EE-X/L	24r	24ryy	.	[4f\	.	[4ff\	.
.	12g/	(24B-X\LL	.	.	.	.	.
.	.	24G\JJ)	.	.	.	.	.
8GG/	24r	24ryy	.	.	.	.	.
.	(24c/LL	12G\	.	.	.	.	.
.	24Bn/JJ)	.	.	.	.	.	.
8BB-X/	24r	24ryy	.	16f\LL]	.	16ff\LL]	.
.	12g/	(24B\LL	.	.	.	.	.
.	.	.	.	(16e-X\	.	(16ee-X\	.
.	.	24G\JJ)	.	.	.	.	.
8GG/J	24r	24ryy	.	16B-X\	.	16b-X\	.
.	(24B/LL	12G\	.	.	.	.	.
.	.	.	.	16c\JJ)	.	16cc\JJ)	.
.	24c/JJ	.	.	.	.	.	.
!!LO:LB:g=original
=95	=95	=95	=95	=95	=95	=95	=95
*^	*	*	*	*	*	*	*
!	!	!	!	!	!	!LO:HP:b:t=cre-scen-do-:dur=8qe:ext=ud	!	!LO:HP:b:t=cre-scen-do-:dur=8qe:ext=ud
8FF#X'/)	8ryy	8d 8c 8A'/)	8ryy	.	(4.d\	<	(4.dd\	<
*	*	*clefF4	*	*	*	*	*	*
8C/L	16CC\LL	8F#X/	24F#\LL	.	.	.	.	.
.	.	.	24D\	.	.	.	.	.
.	16DD\JJ	.	.	.	.	.	.	.
.	.	.	24d\JJ	.	.	.	.	.
8BB-X/	16BBB-X\LL	8G/	24G\LL	.	.	.	.	.
.	.	.	24D\	.	.	.	.	.
.	16DD\JJ	.	.	.	.	.	.	.
.	.	.	24d\JJ	.	.	.	.	.
8FF#X/J	16FFF#X\LL	8A/	24A\LL	.	8b-X\)	.	8bb-X\)	.
.	.	.	24D\	.	.	.	.	.
.	16DD\JJ	.	.	.	.	.	.	.
.	.	.	24d\JJ	.	.	.	.	.
=96	=96	=96	=96	=96	=96	=96	=96	=96
8GG/L	16GGG\LL	8B-X/	24B-\LL	.	(4.d\	.	(4.dd\	.
.	.	.	24D\	.	.	.	.	.
.	16DD\JJ	.	.	.	.	.	.	.
.	.	.	24d\JJ	.	.	.	.	.
8AA/	16AAA\LL	8c/	24c\LL	.	.	.	.	.
.	.	.	24D\	.	.	.	.	.
.	16DD\JJ	.	.	.	.	.	.	.
.	.	.	24d\JJ	.	.	.	.	.
8GG/	16GGG\LL	8B-/	24B-\LL	.	.	.	.	.
.	.	.	24D\	.	.	.	.	.
.	16DD\JJ	.	.	.	.	.	.	.
.	.	.	24d\JJ	.	.	.	.	.
8FF/J	16FFF\LL	8A/	24A\LL	.	16.b-X\LL	.	16.bb-X\LL	.
.	.	.	24D\	.	.	.	.	.
.	16DD\JJ	.	.	.	.	.	.	.
.	.	.	24d\JJ	.	.	.	.	.
.	.	.	.	.	32b-'\JJk)	.	32bb-'\JJk)	.
=97	=97	=97	=97	=97	=97	=97	=97	=97
8EE/L	16EEE\LL	8G#X/	24G#\LL	.	[4d\	.	[4dd\	.
.	.	.	24D\	.	.	.	.	.
.	16DD\JJ	.	.	.	.	.	.	.
.	.	.	24d\JJ	.	.	.	.	.
8FF/	16FFF\LL	8A/	24A\LL	.	.	.	.	.
.	.	.	24D\	.	.	.	.	.
.	16DD\JJ	.	.	.	.	.	.	.
.	.	.	24d\JJ	.	.	.	.	.
8EE/	16EEE\LL	8G#/	24G#\LL	.	16d\LL]	.	16dd\LL]	.
.	.	.	24D\	.	.	.	.	.
.	16DD\JJ	.	.	.	16d\	.	16ddd 16dd\	.
.	.	.	24d\JJ	.	.	.	.	.
8FF#X/J	16FFF#X\LL	8c/	24c\LL	.	16d\	.	16ddd 16dd\	.
.	.	.	24D\	.	.	.	.	.
.	16DD\JJ	.	.	.	16d\JJ	.	16dddJJ 16dd\	.
.	.	.	24d\JJ	.	.	.	.	.
!!LO:LB:g=original
=98	=98	=98	=98	=98	=98	=98	=98	=98
16GG/LL	2GGG\	8c/	24c\LL	.	4f\	.	4fff 4ff\	.
.	.	.	24G\	.	.	.	.	.
16DD/	.	.	.	.	.	.	.	.
.	.	.	24f\JJ	.	.	.	.	.
16GG/	.	8c/	24c\LL	.	.	.	.	.
.	.	.	24G\	.	.	.	.	.
16DD/JJ	.	.	.	.	.	.	.	.
.	.	.	24f\JJ	.	.	.	.	.
16GG/LL	.	8A/	24A\LL	.	(8c\L	.	(8cccL 8cc\	.
.	.	.	24G\	.	.	.	.	.
16DD/	.	.	.	.	.	.	.	.
.	.	.	24f\JJ	.	.	.	.	.
16GG/	.	8B/	24B\LL	.	8d\J)	.	8dddJ 8dd\)	.
.	.	.	24G\	.	.	.	.	.
16DD/JJ	.	.	.	.	.	.	.	.
.	.	.	24f\JJ	.	.	.	.	.
=99	=99	=99	=99	=99	=99	=99	=99	=99
!	!	!LO:TX:t=P:problem=mixed  beam	!	!	!	!	!	!
16C/KL	4CC\	24e\LL 24c\ 24G\	8ryy	.	8G/	.	8gg 8g\	.
*	*	*clefG2	*	*	*	*	*	*
!	!	!LO:TX:i:b:t=con gran forza	!	!	!	!	!	!
.	.	(24a 24A/	.	.	.	.	.	.
8GG/	.	.	.	.	.	.	.	.
.	.	24gJJ 24G/)	.	.	.	.	.	.
!	!	!	!	!	!LO:TX:i:b:t=con gran forza	!	!LO:TX:i:b:t=con gran forza	!
.	.	24e/LL	[8e\	.	(4e\	.	(4eee 4ee\	.
.	.	(<24a 24A/	.	.	.	.	.	.
16GG/Jk	.	.	.	.	.	.	.	.
.	.	24gJJ 24G/)	.	.	.	.	.	.
16C#X/LL	8CC#X\L	24e/LL	8e\]	.	.	.	.	.
.	.	(<24a 24A/	.	.	.	.	.	.
16GG/	.	.	.	.	.	.	.	.
.	.	24gJJ 24G/)	.	.	.	.	.	.
16D/	8DD\J	24f/LL	8f\	.	8f\)	.	8fff 8ff\)	.
.	.	(<24a 24A/	.	.	.	.	.	.
16GG/JJ	.	.	.	.	.	.	.	.
.	.	24gJJ 24G/)	.	.	.	.	.	.
=100	=100	=100	=100	=100	=100	=100	=100	=100
16E/LL	8EE\	24c#X/LL	8c#\	.	8c#X\	.	8ccc#X 8cc#X\	.
.	.	24a 24A/	.	.	.	.	.	.
16GG/JJ	.	.	.	.	.	.	.	.
.	.	24gJJ 24G/	.	.	.	.	.	.
16Fn/KL	4FFn\	24d/LL	[8d\	.	4d\	.	4ddd 4dd\	.
.	.	24a 24A/	.	.	.	.	.	.
8GG/	.	.	.	.	.	.	.	.
.	.	24gJJ 24G/	.	.	.	.	.	.
.	.	24d/LL	8d\]	.	.	.	.	.
.	.	24a 24A/	.	.	.	.	.	.
16GG/Jk	.	.	.	.	.	.	.	.
.	.	24gJJ 24G/	.	.	.	.	.	.
16GG/LL	8GGG\	24d#X/LL	8d#\	.	16B\LL	.	16bbLL 16b\	.
.	.	24a 24A/	.	.	.	.	.	.
16GG/JJ	.	.	.	.	16A\JJ	.	16aaJJ 16a\	.
.	.	24gJJ 24G/	.	.	.	.	.	.
!!LO:LB:g=original
=101	=101	=101	=101	=101	=101	=101	=101	=101
16C/KL	4CC\	24e/LL	8e\	.	8G/	.	8gg 8g\	.
.	.	24a 24A/	.	.	.	.	.	.
8GG/	.	.	.	.	.	.	.	.
.	.	24gJJ 24G/	.	.	.	.	.	.
.	.	24e/LL	[8e\	.	4e\	.	4eee 4ee\	.
.	.	24a 24A/	.	.	.	.	.	.
16GG/Jk	.	.	.	.	.	.	.	.
.	.	24gJJ 24G/	.	.	.	.	.	.
16C#X/LL	8CC#X\L	24e/LL	8e\]	.	.	.	.	.
.	.	24a 24A/	.	.	.	.	.	.
16GG/	.	.	.	.	.	.	.	.
.	.	24gJJ 24G/	.	.	.	.	.	.
16D/	8DD\J	24f/LL	8f\	.	[8f\	.	[8fff [8ff\	.
.	.	24a 24A/	.	.	.	.	.	.
16GG/JJ	.	.	.	.	.	.	.	.
.	.	24gJJ 24G/	.	.	.	.	.	.
=102	=102	=102	=102	=102	=102	=102	=102	=102
16E/KL	4EE\	24c#X/LL	[>8c#\	.	16f\KL]	.	16fff]KL 16ff\]	.
.	.	24a 24A/	.	.	.	.	.	.
8GG/	.	.	.	.	8c#X\	.	8ccc#X 8cc#X\	.
.	.	24gJJ 24G/	.	.	.	.	.	.
.	.	24c#/LL	8c#\]	.	.	.	.	.
.	.	24a 24A/	.	.	.	.	.	.
16GG/Jk	.	.	.	.	[16e\Jk	.	[16eeeJk [16ee\	.
.	.	24gJJ 24G/	.	.	.	.	.	.
16F/LL	8FF\L	24d/LL	8d\	.	16e\LL]	.	16eee]LL 16ee\]	.
.	.	24a 24A/	.	.	.	.	.	.
16GG/	.	.	.	.	16d\JJ	.	16dddJJ 16dd\	.
.	.	24gJJ 24G/	.	.	.	.	.	.
*	*	*	*	*	*Xtuplet	*	*	*
16GG/	8GGG\J	24d#X/LL	8d#\	.	24B\LL	.	24bbLL 24b\	.
.	.	24a 24A/	.	.	24A\	.	24aa\	.
16GG/JJ	.	.	.	.	.	.	.	.
.	.	24gJJ 24G/	.	.	24G\JJ	.	24gg\JJ	.
*	*	*v	*v	*	*	*	*	*
=103	=103	=103	=103	=103	=103	=103	=103
*	*	*^	*	*	*	*	*
16BB-X/LL	8BBB-X\	24e/LL	8e\	.	4g\	.	4ggg 4gg\	.
.	.	(<24a 24A/	.	.	.	.	.	.
16CC/JJ	.	.	.	.	.	.	.	.
.	.	24gJJ 24G/)	.	.	.	.	.	.
*	*	*tuplet	*	*	*	*	*	*
!	!	!LO:TUP:a:problem=klamra łukowa, brak numeru	!	!	!	!	!	!
16B-X/LL	8BB-\	24e/LL	8e\	.	.	.	.	.
.	.	24d/	.	.	.	.	.	.
16C/JJ	.	.	.	.	.	.	.	.
.	.	24ccJJ 24c'/	.	.	.	.	.	.
!	!	!LO:TUP:a:problem=klamra łukowa, brak numeru	!	!	!	!	!	!
16G/LL	8GG\	24g/LL	8g\	.	(8c\L	.	(8cccL 8cc\	.
.	.	24f/	.	.	.	.	.	.
16C/JJ	.	.	.	.	.	.	.	.
.	.	24eeJJ 24e'/	.	.	.	.	.	.
!	!	!LO:TUP:a:problem=klamra łukowa, brak numeru	!	!	!	!	!	!
16E/LL	8EE\	24cc/LL	8cc\	.	8g\J)	.	8gggJ 8gg\)	.
.	.	24a/	.	.	.	.	.	.
16C/JJ	.	.	.	.	.	.	.	.
.	.	24ggJJ 24g'/	.	.	.	.	.	.
*	*	*Xtuplet	*	*	*	*	*	*
*v	*v	*	*	*	*	*	*	*
*	*v	*v	*	*	*	*	*
=104	=104	=104	=104	=104	=104	=104
*	*	*	*	*	*8va	*
!	!LO:TX:i:b:t=ten.	!	!LO:TX:i:b:t=ten.	!	!LO:TX:i:b:t=ten.	!
4.C 4.CC;</	4.bb-X 4.gg 4.ee 4.b-X;\	.	4.g;\	.	4.ggg 4.gg;\	.
*	*	*	*	*	*X8va	*
*	*	*	*clefF4	*	*	*
!!LO:PB:g=original
8r	[8g [8e [8B-X/	>	8r	.	8r	.
=105	=105	=105	=105	=105	=105	=105
8r	4g] 4e] 4B-/]	]]	2r	.	2r	.
(4FF 4FFF/	.	.	.	.	.	.
.	(8fL 8d 8A/	p	.	.	.	.
8GG 8GGG/	8eJ 8c 8G/)	.	.	.	.	.
=106	=106	=106	=106	=106	=106	=106
*	*^	*	*	*	*	*
8AA-X 8AAA-X/	(4d 4F/	8c\L	<	2r	.	2r	.
4GG 4GGG/)	.	8B\J	.	.	.	.	.
.	16qqe/LL	.	[ >	.	.	.	.
.	16qqd/	.	.	.	.	.	.
.	16qqc#X/	.	.	.	.	.	.
.	16qqd/JJ	.	.	.	.	.	.
.	8.f/L	4c# 4B-X 4G\	.	.	.	.	.
8GG 8GGG/	.	.	.	.	.	.	.
.	16e/Jk)	.	]]	.	.	.	.
*	*v	*v	*	*	*	*	*
=107	=107	=107	=107	=107	=107	=107
8r	(4a 4d 4c#X 4A/	p	2r	.	2r	.
(8FF#XL 8FFF#X/	.	.	.	.	.	.
8GG 8GGG/	8gL 8e 8B/	.	.	.	.	.
8AAJ 8AAA/	8fnJ 8c# 8A/)	.	.	.	.	.
=108	=108	=108	=108	=108	=108	=108
*	*^	*	*	*	*	*
8BB-X 8BBB-X/	(4e 4G/	8d\L	<	2r	.	2r	.
4AA 4AAA/)	.	8c#X\J	.	.	.	.	.
.	16qqf/LL	.	[ >	.	.	.	.
.	16qqe/	.	.	.	.	.	.
.	16qqd#X/	.	.	.	.	.	.
.	16qqe/JJ	.	.	.	.	.	.
.	8.g/L	4e-X 4cn 4A\	.	.	.	.	.
8AA 8AAA/	.	.	.	.	.	.	.
.	16f#X/Jk)	.	]]	.	.	.	.
*	*v	*v	*	*	*	*	*
!!LO:LB:g=original
=109	=109	=109	=109	=109	=109	=109
8r	(4cc [<4g-X [4e-X 4c/	pp	8r	.	[2A-X/	pp
([<8AA-XL 8AAA-X/	.	.	(8AA-X/L	pp	.	.
8BB-X 8AA-] 8BBB-X/)	8b-XL 8g-_ 8e-_ 8B-X/	.	8BB-X/	.	.	.
8CJ [8AA- 8CC/	8a-XJ 8g-] 8e-] 8A-X/)	.	8C/J)	.	.	.
=110	=110	=110	=110	=110	=110	=110
*	*	*	*	*	*^	*
4D-X 4AA-] 4DD-X/	[4ff 4a-X [4f\	.	(4AA-X 4DD-X/	.	(4.f/	4A-\]	<
(8DnL 8GG 8DDn/	16ff]LL 16g 16f\]	.	4GG 4DDn/)	.	.	4G\	.
.	(16ff 16f'\	<	.	.	.	.	.
8GGJ 8GGG/)	16ff 16f'\	.	.	.	8d/)	.	.
.	16ffJJ 16f'\)	.	.	.	.	.	.
=111	=111	=111	=111	=111	=111	=111	=111
*^	*^	*	*^	*	*	*	*
(<8CL 8CC/	2GG\	(<16ffLL 16f/	2g\	.	2GG/	(>8CC\L	.	(4g/	2G\	.
.	.	16ee 16e/	.	.	.	.	.	.	.	.
8E 8EE/	.	16dd 16d/	.	.	.	8EE\	.	.	.	.
.	.	16ccJJ 16c/	.	.	.	.	.	.	.	.
8D 8DD/	.	16bLL 16B/	.	.	.	8DD\	.	8f/L	.	.
.	.	16cc 16c/	.	.	.	.	.	.	.	.
8CJ 8CC/)	.	16ee 16e/	.	.	.	8CC\J)	.	8e/J)	.	.
.	.	16gJJ 16G/)	.	[	.	.	.	.	.	[
*v	*v	*	*	*	*v	*v	*	*v	*v	*
*	*v	*v	*	*	*	*	*
=112	=112	=112	=112	=112	=112	=112
8r	8g#XL 8G#X/	.	8r	.	(>2d [2c/	.
!LO:TX:i:a:t=espress.	!	!	!	!	!	!
(8FL 8FF/	[8aJ [8A/	.	4FF/	<	.	.
8FF 8FFF/	16a]LL 16A/]	.	.	.	.	.
.	16a 16A/	.	.	.	.	.
[8FF#XJ [8FFF#X/	16cc 16c/	.	[8FF#X/L	[[	.	.
.	16dJJ 16D/	.	.	.	.	.
=113	=113	=113	=113	=113	=113	=113
8FF#] 8FFF#/]	(4.e 4.c 4.E/	.	8FF#/J]	.	8e 8c/])	.
[4.GG [4.GGG^/)	.	.	[4.GG/	>	8r	.
.	.	.	.	.	4r	.
.	8e 8c 8E'/)	.	.	.	.	.
!!LO:LB:g=original
=114	=114	=114	=114	=114	=114	=114
8GG] 8GGG/]	(4g 4e 4c#X 4B-X/	>	4.GG/]	]]	2r	.
(<[4.GG 4.GGG^/	.	.	.	.	.	.
.	8fL 8d 8A/)	.	.	.	.	.
!	!	!	!LO:TX:i:a:t=pizz.	!	!	!
.	(8dJ 8Bn 8F/	]	8GG/	.	.	.
=115	=115	=115	=115	=115	=115	=115
!	!	!	!LO:TX:i:a:t=arco	!	!	!
24GG]LL 24CC\)	8c 8E/)	.	[2CC/	pp	8r	.
!	!	!LO:DY:b=2	!	!	!	!
24c\	.	pp	.	.	.	.
24C\JJ	.	.	.	.	.	.
!	!	!	!	!	!LO:TX:i:b:t=pizz.	!
!	!	!	!	!	!LO:TX:i:a:t=marcato	!
24c\LL	8r	.	.	.	4c/	.
24C\	.	.	.	.	.	.
24c\JJ	.	.	.	.	.	.
24C\LL	4r	.	.	.	.	.
24c\	.	.	.	.	.	.
24C\JJ	.	.	.	.	.	.
24c\LL	.	.	.	.	8r	.
24C\	.	.	.	.	.	.
24c\JJ	.	.	.	.	.	.
=116	=116	=116	=116	=116	=116	=116
*^	*	*	*	*	*	*
24C\LL	4ryy	8r	.	2CC/_	.	8r	.
24c\	.	.	.	.	.	.	.
24C\JJ	.	.	.	.	.	.	.
24c\LL	.	(8c/L	.	.	.	4c/	.
24C\	.	.	.	.	.	.	.
24c\JJ	.	.	.	.	.	.	.
24ryy	24C\LL	8d/	.	.	.	.	.
12B/	24B\	.	.	.	.	.	.
.	24C\JJ	.	.	.	.	.	.
12B-X/	24B-\LL	8e/J)	.	.	.	8r	.
.	24C\	.	.	.	.	.	.
24ryy	24B-\JJ	.	.	.	.	.	.
*v	*v	*	*	*	*	*	*
=117	=117	=117	=117	=117	=117	=117
24C\LL	(4f/	<	2CC/_	.	8r	.
24A\	.	.	.	.	.	.
24C\JJ	.	.	.	.	.	.
24A\LL	.	.	.	.	4c/	.
24C\	.	.	.	.	.	.
24A\JJ	.	.	.	.	.	.
.	16qqg/LL	.	.	.	.	.
.	16qqf/	.	.	.	.	.
.	16qqe/	.	.	.	.	.
.	16qqf/JJ	.	.	.	.	.
24C\LL	8cc/L)	.	.	.	.	.
24A\	.	.	.	.	.	.
24C\JJ	.	.	.	.	.	.
24A\LL	(16.c/L	.	.	.	8r	.
24C\	.	.	.	.	.	.
24A\JJ	.	.	.	.	.	.
.	32c'/JJk)	[	.	.	.	.
!!LO:PB:g=original
=118	=118	=118	=118	=118	=118	=118
24C\LL	[8d-X/L	.	2CC/_	.	8r	.
24A-X\	.	.	.	.	.	.
24C\JJ	.	.	.	.	.	.
24A-\LL	24d-/L]	>	.	.	4c/	.
24C\	(24f/	.	.	.	.	.
24A-\JJ	24cc/JJ	.	.	.	.	.
24C\LL	24b-X/LL	.	.	.	.	.
24A-\	24a-X/	.	.	.	.	.
24C\JJ	24g/JJ	.	.	.	.	.
24A-\LL	24f/LL	.	.	.	8r	.
24C\	24e-X/	.	.	.	.	.
24A-\JJ	24c/JJ	]	.	.	.	.
=119	=119	=119	=119	=119	=119	=119
24C\LL	8c/)	.	8CC/L]	.	8r	.
24G\	.	.	.	.	.	.
24C\JJ	.	.	.	.	.	.
!	!	!	!	!	!LO:TX:i:a:t=arco	!
24c\LL	4.ccc 4.cc\	.	(8CC/	.	(8e/L	pp
24C\	.	.	.	.	.	.
24c\JJ	.	.	.	.	.	.
24C\LL	.	.	8DD/	.	8f/	.
24B\	.	.	.	.	.	.
24C\JJ	.	.	.	.	.	.
24B-X\LL	.	.	8EE/J)	.	8g/J)	.
24C\	.	.	.	.	.	.
24B-\JJ	.	.	.	.	.	.
=120	=120	=120	=120	=120	=120	=120
24C\LL	8r	<	(4FF/	<	(8a/L	<
24A\	.	.	.	.	.	.
24C\JJ	.	.	.	.	.	.
24A\LL	4.aa 4.a\	.	.	.	8f/	.
24C\	.	.	.	.	.	.
24A\JJ	.	.	.	.	.	.
.	.	.	16qqGG/LL	.	.	.
.	.	.	16qqFF/	.	.	.
.	.	.	16qqEE/	.	.	.
.	.	.	16qqFF/JJ	.	.	.
24C\LL	.	.	8C/L)	.	8c/	.
24A\	.	.	.	.	.	.
24C\JJ	.	.	.	.	.	.
24A\LL	.	.	(16.CC/L	[	8a/J)	[[
24C\	.	.	.	.	.	.
24A\JJ	.	[[	.	.	.	.
.	.	.	32CC'/JJk)	.	.	.
!!LO:LB:g=original
=121	=121	=121	=121	=121	=121	=121
24C\LL	8r	>	([8DD-X/L	.	(4.a-X/	>
24A-X\	.	.	.	.	.	.
24C\JJ	.	.	.	.	.	.
24A-\LL	4.ccc 4.cc\	.	24DD-/L]	.	.	.
24C\	.	.	24FF/	.	.	.
24A-\JJ	.	.	24C/JJ)	.	.	.
24C\LL	.	.	(24BB-X/LL	>	.	.
24A-\	.	.	24AA-X/)	.	.	.
24C\JJ	.	.	(24GG/JJ	.	.	.
24A-\LL	.	]	24FF/LL)	.	8B/)	]]
24C\	.	.	24EE-X/	.	.	.
24A-\JJ	.	.	24CC/JJ	]	.	.
=122	=122	=122	=122	=122	=122	=122
*	*^	*	*	*	*	*
24C\LL	8r	4ryy	<	([8CC/L	<	(8c/L	<
24G\	.	.	.	.	.	.	.
24C\JJ	.	.	.	.	.	.	.
24G\LL	4.ccc 4.cc\	.	.	24CC/L]	.	8e/	.
24C\	.	.	.	24EE/	.	.	.
24G\JJ	.	.	.	24BB-X/JJ)	.	.	.
24C\LL	.	4ryy	[ >	(24AA-X/LL	.	8f/	[[
24A-X\	.	.	.	24GG/)	[	.	.
24C\JJ	.	.	.	[24FF/JJ	.	.	.
24A-\LL	.	.	.	24FF/LL]	>	8B/J)	> ]]
24C\	.	.	.	24EE-X/	.	.	.
24A-\JJ	.	.	]	24DD-X/JJ	]	.	.
=123	=123	=123	=123	=123	=123	=123	=123
24C\LL	8r	4ryy	<	([8CC/L	<	8c/L	<
24G\	.	.	.	.	.	.	.
24C\JJ	.	.	.	.	.	.	.
24G\LL	[4.cc [4.c/	.	.	24CC/L]	.	16d/L	.
24C\	.	.	.	24EE/	.	.	.
.	.	.	.	.	.	16e/JJ	.
24G\JJ	.	.	.	24BB-X/JJ)	.	.	.
24C\LL	.	4ryy	[ >	(24AA-X/LL	.	16f/LL	.
24A-X\	.	.	.	24GG/)	[	.	.
.	.	.	.	.	.	(16g/	[ >
24C\JJ	.	.	.	[24FF/JJ	>	.	.
24A-\LL	.	.	.	24FF/LL]	.	16a-X/	.
24C\	.	.	.	24EE-X/	.	.	.
.	.	.	.	.	.	16B/JJ)	]]
24A-\JJ	.	.	]	24DD-X/JJ	]	.	.
!!LO:LB:g=original
=124	=124	=124	=124	=124	=124	=124	=124
!	!LO:TX:i:b:t=morendo sempre	!	!	!LO:TX:i:a:t=morendo sempre	!	!	!
24C\LL	8cc] 8c/]	8ryy	.	(24CC/LL	<	[2c/	.
24G\	.	.	.	24EEn/)	.	.	.
24C\JJ	.	.	.	(24GG/JJ	.	.	.
24A-X\LL	4cc 4c/	8f\L	.	24FF/LL)	[ >	.	.
24C\	.	.	.	24EE-X/	.	.	.
24A-\JJ	.	.	.	24DD-X/JJ	.	.	.
24C\LL	.	8e\	.	(24CC/LL	] <	.	.
24G\	.	.	.	24EEn/)	.	.	.
24C\JJ	.	.	.	(24GG/JJ	.	.	.
24A-\LL	[8cc [8c/	8f\J	.	24FF/LL)	[ >	.	.
24C\	.	.	.	24EE-X/	.	.	.
24A-\JJ	.	.	.	24DD-/JJ	]]	.	.
*	*v	*v	*	*	*	*	*
=125	=125	=125	=125	=125	=125	=125
*	*	*	*^	*	*	*
24C\LL	24cc]LL 24e 24c/]	.	8CC/L	[2CC\	.	8c/L]	.
(24E\	(24e/	.	.	.	.	.	.
24G\JJ	24g/JJ	.	.	.	.	.	.
24F\LL)	24f/LL)	.	8AA-X/	.	.	(8a 8B/	.
(<24E-X'<\	(>24e-X'/	.	.	.	.	.	.
24D-X'<\JJ	24d-X'/JJ	.	.	.	.	.	.
24C'<\LL	24c'/LL	.	8GG/	.	.	8e 8c/	.
24AA-X'<\	24A-<X'/	.	.	.	.	.	.
24GG'<\JJ	24G<'/JJ	.	.	.	.	.	.
24FF'<\LL	24F<'/LL	.	8AA-/J	.	.	8fJ 8B/	.
24EE-X'<\	24E-<X'/	.	.	.	.	.	.
24DD-X'<\JJ	24D-<X'/JJ	.	.	.	.	.	.
*	*	*	*v	*v	*	*	*
=126	=126	=126	=126	=126	=126	=126
8CC'<\)	8C<'/)	.	8GG 8CC/]	.	8e 8c/)	.
8r	8r<	.	8r	.	8r	.
!	!	!	!LO:TX:i:a:t=pizz.	!	!LO:TX:i:a:t=pizz.	!
8CC/	8e 8G/	ppp	8GG 8CC/	ppp	8e 8G/	ppp
8r	8r	.	8r	.	8r	.
=127	=127	=127	=127	=127	=127	=127
8CC/	8c 8E/	.	8CC/	.	8c/	.
8r	8r	.	8r	.	8r	.
8r	8r	.	8r	.	8r	.
==	==	==	==	==	==	==
*-	*-	*-	*-	*-	*-	*-
!!!system-decoration: s1,s2{(s3,s4)}
!!!RDF**kern: > = above
!!!RDF**kern: < = below
!!!ENC: Filip Voros
!!!END: 2022-03-08
!!!ENC: Kamil Watkowski
!!!END: 2022-03-12
!!!YEC: Copyright 2022 Narodowy Instytut Fryderyka Chopina (https://polishscores.org)
!!!YEM: License CC-BY-4.0 (https://creativecommons.org/licenses/by/4.0)
